(G-CODE GENERATED BY FLATCAM v8.994 - www.flatcam.org - Version Date: 2020/11/7)

(Name: F_F-F_Cu.gbr_iso_combined_1_cnc)
(Type: G-code from Geometry)
(Units: MM)

(Created on Friday, 16 January 2026 at 20:29)

(This preprocessor is the default preprocessor used by FlatCAM.)
(It is made to work with MACH3 compatible motion controllers.)

(TOOL DIAMETER: 0.15 mm)
(Feedrate_XY: 100.0 mm/min)
(Feedrate_Z: 35.0 mm/min)
(Feedrate rapids 1500.0 mm/min)

(Z_Cut: -0.08 mm)
(Z_Move: 2.0 mm)
(Z Start: None mm)
(Z End: 15.0 mm)
(X,Y End: 0.0000, 0.0000 mm)
(Steps per circle: 64)
(Preprocessor Geometry: default)

(X range:    0.3155 ...   49.3349  mm)
(Y range:    0.3155 ...   39.3349  mm)

(Spindle Speed: 10000.0 RPM)
G21
G90
G94

G01 F100.00

M5
G00 Z15.0000
G00 X0.0000 Y0.0000
T1
M6    
(MSG, Change to Tool Dia = 0.1500)
M0
G00 Z15.0000

M03 S10000.0
G01 F100.00
G00 X0.7153 Y3.0098
G01 F35.00
G01 Z-0.0800
G01 F100.00
G01 X0.7250 Y2.8138
G01 X0.7267 Y2.7937
G01 X0.7567 Y2.5893
G01 X0.7604 Y2.5696
G01 X0.8104 Y2.3691
G01 X0.8160 Y2.3498
G01 X0.8853 Y2.1552
G01 X0.8928 Y2.1365
G01 X0.9809 Y1.9497
G01 X0.9902 Y1.9318
G01 X1.0961 Y1.7545
G01 X1.1071 Y1.7376
G01 X1.2300 Y1.5715
G01 X1.2425 Y1.5558
G01 X1.3811 Y1.4026
G01 X1.3951 Y1.3882
G01 X1.5480 Y1.2493
G01 X1.5634 Y1.2363
G01 X1.7292 Y1.1130
G01 X1.7458 Y1.1016
G01 X1.9228 Y0.9952
G01 X1.9404 Y0.9855
G01 X2.1271 Y0.8970
G01 X2.1456 Y0.8890
G01 X2.3400 Y0.8192
G01 X2.3592 Y0.8131
G01 X2.5595 Y0.7627
G01 X2.5792 Y0.7585
G01 X2.7835 Y0.7279
G01 X2.8035 Y0.7257
G01 X3.0098 Y0.7153
G01 X3.0299 Y0.7151
G01 X3.2363 Y0.7250
G01 X3.2563 Y0.7267
G01 X3.4607 Y0.7567
G01 X3.4805 Y0.7604
G01 X3.6809 Y0.8104
G01 X3.7002 Y0.8160
G01 X3.8948 Y0.8853
G01 X3.9135 Y0.8928
G01 X4.1004 Y0.9809
G01 X4.1182 Y0.9902
G01 X4.2956 Y1.0961
G01 X4.3124 Y1.1071
G01 X4.4785 Y1.2300
G01 X4.4942 Y1.2425
G01 X4.6474 Y1.3811
G01 X4.6619 Y1.3951
G01 X4.8008 Y1.5480
G01 X4.8137 Y1.5634
G01 X4.9370 Y1.7292
G01 X4.9484 Y1.7458
G01 X5.0548 Y1.9228
G01 X5.0645 Y1.9404
G01 X5.1531 Y2.1271
G01 X5.1610 Y2.1456
G01 X5.2308 Y2.3400
G01 X5.2369 Y2.3592
G01 X5.2873 Y2.5595
G01 X5.2915 Y2.5792
G01 X5.3221 Y2.7835
G01 X5.3243 Y2.8035
G01 X5.3347 Y3.0098
G01 X5.3349 Y3.0299
G01 X5.3251 Y3.2363
G01 X5.3233 Y3.2563
G01 X5.2933 Y3.4607
G01 X5.2896 Y3.4805
G01 X5.2397 Y3.6809
G01 X5.2341 Y3.7002
G01 X5.1647 Y3.8948
G01 X5.1572 Y3.9135
G01 X5.0691 Y4.1004
G01 X5.0599 Y4.1182
G01 X4.9539 Y4.2956
G01 X4.9429 Y4.3124
G01 X4.8201 Y4.4785
G01 X4.8075 Y4.4942
G01 X4.6690 Y4.6474
G01 X4.6549 Y4.6619
G01 X4.5020 Y4.8008
G01 X4.4866 Y4.8137
G01 X4.3208 Y4.9370
G01 X4.3043 Y4.9484
G01 X4.1272 Y5.0548
G01 X4.1096 Y5.0645
G01 X3.9229 Y5.1531
G01 X3.9044 Y5.1610
G01 X3.7100 Y5.2308
G01 X3.6909 Y5.2369
G01 X3.4905 Y5.2873
G01 X3.4708 Y5.2915
G01 X3.2665 Y5.3221
G01 X3.2465 Y5.3243
G01 X3.0402 Y5.3347
G01 X3.0201 Y5.3349
G01 X2.8138 Y5.3251
G01 X2.7937 Y5.3233
G01 X2.5893 Y5.2933
G01 X2.5696 Y5.2896
G01 X2.3691 Y5.2397
G01 X2.3498 Y5.2341
G01 X2.1552 Y5.1647
G01 X2.1365 Y5.1572
G01 X1.9497 Y5.0691
G01 X1.9318 Y5.0599
G01 X1.7545 Y4.9539
G01 X1.7376 Y4.9429
G01 X1.5715 Y4.8201
G01 X1.5558 Y4.8075
G01 X1.4026 Y4.6690
G01 X1.3882 Y4.6549
G01 X1.2493 Y4.5020
G01 X1.2363 Y4.4866
G01 X1.1130 Y4.3208
G01 X1.1016 Y4.3043
G01 X0.9952 Y4.1272
G01 X0.9855 Y4.1096
G01 X0.8970 Y3.9229
G01 X0.8890 Y3.9044
G01 X0.8192 Y3.7100
G01 X0.8131 Y3.6909
G01 X0.7627 Y3.4905
G01 X0.7585 Y3.4708
G01 X0.7279 Y3.2665
G01 X0.7257 Y3.2465
G01 X0.7153 Y3.0402
G01 X0.7151 Y3.0299
G01 X0.7153 Y3.0098
G00 Z2.0000
G00 X0.8502 Y3.0164
G01 F35.00
G01 Z-0.0800
G01 F100.00
G01 X0.8598 Y2.8204
G01 X0.8610 Y2.8069
G01 X0.8903 Y2.6091
G01 X0.8928 Y2.5959
G01 X0.9413 Y2.4019
G01 X0.9452 Y2.3890
G01 X1.0124 Y2.2007
G01 X1.0175 Y2.1882
G01 X1.1029 Y2.0074
G01 X1.1092 Y1.9954
G01 X1.2119 Y1.8239
G01 X1.2194 Y1.8126
G01 X1.3384 Y1.6519
G01 X1.3469 Y1.6415
G01 X1.4811 Y1.4932
G01 X1.4906 Y1.4836
G01 X1.6387 Y1.3493
G01 X1.6490 Y1.3407
G01 X1.8096 Y1.2215
G01 X1.8208 Y1.2139
G01 X1.9922 Y1.1110
G01 X2.0041 Y1.1046
G01 X2.1848 Y1.0190
G01 X2.1972 Y1.0138
G01 X2.3855 Y0.9463
G01 X2.3984 Y0.9423
G01 X2.5923 Y0.8936
G01 X2.6055 Y0.8909
G01 X2.8033 Y0.8615
G01 X2.8167 Y0.8601
G01 X3.0164 Y0.8502
G01 X3.0299 Y0.8501
G01 X3.2296 Y0.8598
G01 X3.2431 Y0.8610
G01 X3.4409 Y0.8903
G01 X3.4541 Y0.8928
G01 X3.6481 Y0.9413
G01 X3.6611 Y0.9452
G01 X3.8494 Y1.0124
G01 X3.8619 Y1.0175
G01 X4.0426 Y1.1029
G01 X4.0546 Y1.1092
G01 X4.2261 Y1.2119
G01 X4.2374 Y1.2194
G01 X4.3981 Y1.3384
G01 X4.4086 Y1.3469
G01 X4.5568 Y1.4811
G01 X4.5664 Y1.4906
G01 X4.7007 Y1.6387
G01 X4.7094 Y1.6490
G01 X4.8286 Y1.8096
G01 X4.8361 Y1.8208
G01 X4.9390 Y1.9922
G01 X4.9454 Y2.0041
G01 X5.0310 Y2.1848
G01 X5.0363 Y2.1972
G01 X5.1037 Y2.3855
G01 X5.1077 Y2.3984
G01 X5.1564 Y2.5923
G01 X5.1591 Y2.6055
G01 X5.1885 Y2.8033
G01 X5.1900 Y2.8167
G01 X5.1999 Y3.0164
G01 X5.1999 Y3.0299
G01 X5.1902 Y3.2296
G01 X5.1890 Y3.2431
G01 X5.1597 Y3.4409
G01 X5.1572 Y3.4541
G01 X5.1087 Y3.6481
G01 X5.1049 Y3.6611
G01 X5.0376 Y3.8494
G01 X5.0325 Y3.8619
G01 X4.9471 Y4.0426
G01 X4.9408 Y4.0546
G01 X4.8381 Y4.2261
G01 X4.8307 Y4.2374
G01 X4.7116 Y4.3981
G01 X4.7031 Y4.4086
G01 X4.5689 Y4.5568
G01 X4.5594 Y4.5664
G01 X4.4114 Y4.7007
G01 X4.4010 Y4.7094
G01 X4.2404 Y4.8286
G01 X4.2293 Y4.8361
G01 X4.0578 Y4.9390
G01 X4.0459 Y4.9454
G01 X3.8652 Y5.0310
G01 X3.8528 Y5.0363
G01 X3.6646 Y5.1037
G01 X3.6517 Y5.1077
G01 X3.4577 Y5.1564
G01 X3.4445 Y5.1591
G01 X3.2467 Y5.1885
G01 X3.2333 Y5.1900
G01 X3.0336 Y5.1999
G01 X3.0201 Y5.1999
G01 X2.8204 Y5.1902
G01 X2.8069 Y5.1890
G01 X2.6091 Y5.1597
G01 X2.5959 Y5.1572
G01 X2.4019 Y5.1087
G01 X2.3890 Y5.1049
G01 X2.2007 Y5.0376
G01 X2.1882 Y5.0325
G01 X2.0074 Y4.9471
G01 X1.9954 Y4.9408
G01 X1.8239 Y4.8381
G01 X1.8126 Y4.8307
G01 X1.6519 Y4.7116
G01 X1.6415 Y4.7031
G01 X1.4932 Y4.5689
G01 X1.4836 Y4.5594
G01 X1.3493 Y4.4114
G01 X1.3407 Y4.4010
G01 X1.2215 Y4.2404
G01 X1.2139 Y4.2293
G01 X1.1110 Y4.0578
G01 X1.1046 Y4.0459
G01 X1.0190 Y3.8652
G01 X1.0138 Y3.8528
G01 X0.9463 Y3.6646
G01 X0.9423 Y3.6517
G01 X0.8936 Y3.4577
G01 X0.8909 Y3.4445
G01 X0.8615 Y3.2467
G01 X0.8601 Y3.2333
G01 X0.8502 Y3.0336
G01 X0.8502 Y3.0164
G00 Z2.0000
G00 X0.4505 Y17.5959
G01 F35.00
G01 Z-0.0800
G01 F100.00
G01 X0.4505 Y4.3654
G01 X0.4513 Y4.3543
G01 X0.4577 Y4.3128
G01 X0.4596 Y4.3059
G01 X0.4615 Y4.3008
G01 X0.4663 Y4.2911
G01 X0.5087 Y4.2266
G01 X0.5147 Y4.2194
G01 X0.5214 Y4.2130
G01 X0.5306 Y4.2066
G01 X0.5388 Y4.2023
G01 X0.6061 Y4.1725
G01 X0.6168 Y4.1692
G01 X0.6278 Y4.1676
G01 X0.6353 Y4.1675
G01 X0.6427 Y4.1681
G01 X0.7154 Y4.1793
G01 X0.7263 Y4.1821
G01 X0.7365 Y4.1864
G01 X0.7445 Y4.1912
G01 X0.7519 Y4.1969
G01 X0.8055 Y4.2444
G01 X0.8105 Y4.2495
G01 X0.8139 Y4.2536
G01 X0.8180 Y4.2595
G01 X0.9621 Y4.4887
G01 X1.1389 Y4.7105
G01 X1.3395 Y4.9111
G01 X1.5613 Y5.0880
G01 X1.8015 Y5.2389
G01 X2.0570 Y5.3619
G01 X2.3248 Y5.4556
G01 X2.6013 Y5.5188
G01 X2.8832 Y5.5505
G01 X3.1668 Y5.5505
G01 X3.4487 Y5.5188
G01 X3.7253 Y5.4556
G01 X3.9930 Y5.3619
G01 X4.2486 Y5.2389
G01 X4.4887 Y5.0880
G01 X4.7105 Y4.9111
G01 X4.9111 Y4.7105
G01 X5.0880 Y4.4887
G01 X5.2389 Y4.2486
G01 X5.3619 Y3.9930
G01 X5.4556 Y3.7253
G01 X5.5188 Y3.4487
G01 X5.5505 Y3.1668
G01 X5.5505 Y2.8832
G01 X5.5188 Y2.6013
G01 X5.4556 Y2.3248
G01 X5.3619 Y2.0570
G01 X5.2389 Y1.8015
G01 X5.0880 Y1.5613
G01 X4.9111 Y1.3395
G01 X4.7105 Y1.1389
G01 X4.4887 Y0.9621
G01 X4.2564 Y0.8160
G01 X4.2506 Y0.8114
G01 X4.2201 Y0.7852
G01 X4.2128 Y0.7772
G01 X4.2067 Y0.7683
G01 X4.2034 Y0.7619
G01 X4.1736 Y0.6966
G01 X4.1705 Y0.6878
G01 X4.1685 Y0.6788
G01 X4.1676 Y0.6676
G01 X4.1681 Y0.6583
G01 X4.1789 Y0.5837
G01 X4.1813 Y0.5746
G01 X4.1847 Y0.5660
G01 X4.1892 Y0.5578
G01 X4.1947 Y0.5503
G01 X4.2441 Y0.4933
G01 X4.2482 Y0.4894
G01 X4.2539 Y0.4847
G01 X4.2586 Y0.4816
G01 X4.2651 Y0.4780
G01 X4.2754 Y0.4738
G01 X4.3459 Y0.4531
G01 X4.3565 Y0.4510
G01 X4.3654 Y0.4505
G01 X35.6726 Y0.4505
G01 X35.6800 Y0.4509
G01 X35.6873 Y0.4520
G01 X35.7440 Y0.4647
G01 X35.7543 Y0.4681
G01 X35.7640 Y0.4730
G01 X35.7686 Y0.4759
G01 X35.7743 Y0.4803
G01 X35.8305 Y0.5305
G01 X35.8356 Y0.5360
G01 X35.8390 Y0.5405
G01 X35.8421 Y0.5451
G01 X35.8456 Y0.5517
G01 X35.8496 Y0.5621
G01 X35.8693 Y0.6329
G01 X35.8712 Y0.6434
G01 X35.8716 Y0.6524
G01 X35.7218 Y11.1290
G01 X35.7213 Y11.1365
G01 X35.7201 Y11.1440
G01 X35.7059 Y11.2017
G01 X35.7023 Y11.2120
G01 X35.6981 Y11.2202
G01 X35.6941 Y11.2263
G01 X35.6895 Y11.2320
G01 X35.6392 Y11.2856
G01 X35.6351 Y11.2895
G01 X35.6293 Y11.2941
G01 X35.6230 Y11.2981
G01 X35.6181 Y11.3007
G01 X35.6112 Y11.3036
G01 X35.6059 Y11.3053
G01 X35.5363 Y11.3228
G01 X35.5276 Y11.3245
G01 X35.5187 Y11.3251
G01 X34.8745 Y11.3000
G01 X30.9220 Y11.3969
G01 X30.9145 Y11.3965
G01 X30.9089 Y11.3957
G01 X30.8525 Y11.3842
G01 X30.8436 Y11.3818
G01 X30.8352 Y11.3784
G01 X30.8272 Y11.3740
G01 X30.8198 Y11.3686
G01 X30.7656 Y11.3217
G01 X30.7589 Y11.3151
G01 X30.7532 Y11.3078
G01 X30.7483 Y11.2999
G01 X30.7445 Y11.2914
G01 X30.7226 Y11.2173
G01 X30.7208 Y11.2086
G01 X30.7200 Y11.1979
G01 X30.7200 Y7.0497
G01 X19.8395 Y7.0103
G01 X19.8109 Y11.0295
G01 X19.8102 Y11.0371
G01 X19.8092 Y11.0428
G01 X19.7951 Y11.1014
G01 X19.7922 Y11.1101
G01 X19.7873 Y11.1200
G01 X19.7832 Y11.1262
G01 X19.7786 Y11.1319
G01 X19.7283 Y11.1856
G01 X19.7199 Y11.1930
G01 X19.7121 Y11.1981
G01 X19.7038 Y11.2022
G01 X19.6950 Y11.2052
G01 X19.6255 Y11.2228
G01 X19.6149 Y11.2247
G01 X19.6042 Y11.2250
G01 X13.0973 Y10.9729
G01 X12.9427 Y15.4103
G01 X15.6870 Y15.4210
G01 X15.7402 Y15.3627
G01 X15.8352 Y15.2765
G01 X15.9411 Y15.1977
G01 X16.0559 Y15.1288
G01 X16.1735 Y15.0731
G01 X16.2995 Y15.0279
G01 X16.4275 Y14.9959
G01 X16.5581 Y14.9765
G01 X16.6899 Y14.9700
G01 X16.8217 Y14.9765
G01 X16.9523 Y14.9959
G01 X17.0803 Y15.0279
G01 X17.2063 Y15.0731
G01 X17.3239 Y15.1288
G01 X17.4387 Y15.1977
G01 X17.5403 Y15.2730
G01 X17.5459 Y15.2777
G01 X17.6410 Y15.3640
G01 X17.6999 Y15.4289
G01 X20.4354 Y15.4395
G01 X20.4410 Y15.4398
G01 X20.4483 Y15.4407
G01 X20.4978 Y15.4508
G01 X20.5065 Y15.4531
G01 X20.5116 Y15.4550
G01 X20.5181 Y15.4581
G01 X20.5243 Y15.4618
G01 X20.5287 Y15.4650
G01 X20.5857 Y15.5115
G01 X20.5924 Y15.5180
G01 X20.5982 Y15.5252
G01 X20.6040 Y15.5348
G01 X20.6082 Y15.5451
G01 X20.6304 Y15.6133
G01 X20.6325 Y15.6219
G01 X20.6336 Y15.6326
G01 X20.6961 Y17.7269
G01 X20.6949 Y17.7392
G01 X20.6823 Y17.7995
G01 X20.6790 Y17.8101
G01 X20.6750 Y17.8185
G01 X20.6711 Y17.8248
G01 X20.6666 Y17.8308
G01 X20.6177 Y17.8857
G01 X20.6123 Y17.8909
G01 X20.6080 Y17.8944
G01 X20.5986 Y17.9005
G01 X20.5919 Y17.9037
G01 X20.5849 Y17.9062
G01 X20.5158 Y17.9256
G01 X20.5053 Y17.9277
G01 X20.4946 Y17.9283
G01 X6.0640 Y17.7410
G01 X0.6497 Y17.7949
G01 X0.6424 Y17.7944
G01 X0.6370 Y17.7936
G01 X0.5807 Y17.7816
G01 X0.5720 Y17.7790
G01 X0.5638 Y17.7754
G01 X0.5575 Y17.7718
G01 X0.5503 Y17.7665
G01 X0.4920 Y17.7158
G01 X0.4859 Y17.7088
G01 X0.4816 Y17.7027
G01 X0.4780 Y17.6962
G01 X0.4744 Y17.6876
G01 X0.4531 Y17.6153
G01 X0.4510 Y17.6048
G01 X0.4505 Y17.5959
G00 Z2.0000
G00 X0.3155 Y17.5959
G01 F35.00
G01 Z-0.0800
G01 F100.00
G01 X0.3155 Y4.3654
G01 X0.3158 Y4.3550
G01 X0.3171 Y4.3395
G01 X0.3232 Y4.2983
G01 X0.3260 Y4.2834
G01 X0.3298 Y4.2687
G01 X0.3347 Y4.2543
G01 X0.3406 Y4.2404
G01 X0.3475 Y4.2268
G01 X0.3554 Y4.2139
G01 X0.3938 Y4.1555
G01 X0.4028 Y4.1427
G01 X0.4094 Y4.1346
G01 X0.4164 Y4.1269
G01 X0.4237 Y4.1195
G01 X0.4354 Y4.1090
G01 X0.4478 Y4.0995
G01 X0.4564 Y4.0937
G01 X0.4699 Y4.0858
G01 X0.4792 Y4.0811
G01 X0.5478 Y4.0505
G01 X0.5624 Y4.0447
G01 X0.5723 Y4.0415
G01 X0.5874 Y4.0375
G01 X0.6028 Y4.0347
G01 X0.6183 Y4.0330
G01 X0.6340 Y4.0324
G01 X0.6444 Y4.0327
G01 X0.6548 Y4.0336
G01 X0.7393 Y4.0464
G01 X0.7495 Y4.0485
G01 X0.7646 Y4.0526
G01 X0.7745 Y4.0559
G01 X0.7890 Y4.0619
G01 X0.7984 Y4.0664
G01 X0.8120 Y4.0741
G01 X0.8250 Y4.0828
G01 X0.8333 Y4.0891
G01 X0.8973 Y4.1454
G01 X0.9080 Y4.1560
G01 X0.9178 Y4.1673
G01 X0.9239 Y4.1753
G01 X0.9323 Y4.1877
G01 X1.0723 Y4.4105
G01 X1.2397 Y4.6204
G01 X1.4296 Y4.8103
G01 X1.6395 Y4.9777
G01 X1.8669 Y5.1205
G01 X2.1088 Y5.2370
G01 X2.3622 Y5.3257
G01 X2.6240 Y5.3855
G01 X2.8908 Y5.4155
G01 X3.1593 Y5.4155
G01 X3.4261 Y5.3855
G01 X3.6878 Y5.3257
G01 X3.9413 Y5.2370
G01 X4.1832 Y5.1205
G01 X4.4105 Y4.9777
G01 X4.6204 Y4.8103
G01 X4.8103 Y4.6204
G01 X4.9777 Y4.4105
G01 X5.1205 Y4.1832
G01 X5.2370 Y3.9413
G01 X5.3257 Y3.6878
G01 X5.3855 Y3.4261
G01 X5.4155 Y3.1593
G01 X5.4155 Y2.8908
G01 X5.3855 Y2.6240
G01 X5.3257 Y2.3622
G01 X5.2370 Y2.1088
G01 X5.1205 Y1.8669
G01 X4.9777 Y1.6395
G01 X4.8103 Y1.4296
G01 X4.6204 Y1.2397
G01 X4.4105 Y1.0723
G01 X4.1876 Y0.9323
G01 X4.1790 Y0.9266
G01 X4.1707 Y0.9204
G01 X4.1311 Y0.8868
G01 X4.1168 Y0.8725
G01 X4.1069 Y0.8610
G01 X4.0980 Y0.8488
G01 X4.0899 Y0.8359
G01 X4.0850 Y0.8270
G01 X4.0516 Y0.7544
G01 X4.0456 Y0.7399
G01 X4.0408 Y0.7251
G01 X4.0381 Y0.7150
G01 X4.0360 Y0.7048
G01 X4.0344 Y0.6945
G01 X4.0333 Y0.6841
G01 X4.0327 Y0.6737
G01 X4.0328 Y0.6580
G01 X4.0335 Y0.6476
G01 X4.0447 Y0.5681
G01 X4.0464 Y0.5578
G01 X4.0487 Y0.5476
G01 X4.0514 Y0.5376
G01 X4.0547 Y0.5277
G01 X4.0584 Y0.5179
G01 X4.0649 Y0.5037
G01 X4.0698 Y0.4945
G01 X4.0780 Y0.4812
G01 X4.0841 Y0.4727
G01 X4.0905 Y0.4645
G01 X4.1396 Y0.4077
G01 X4.1466 Y0.4000
G01 X4.1540 Y0.3926
G01 X4.1658 Y0.3823
G01 X4.1783 Y0.3729
G01 X4.1914 Y0.3644
G01 X4.2052 Y0.3570
G01 X4.2195 Y0.3506
G01 X4.2342 Y0.3452
G01 X4.3110 Y0.3227
G01 X4.3256 Y0.3193
G01 X4.3355 Y0.3177
G01 X4.3504 Y0.3160
G01 X4.3654 Y0.3155
G01 X35.6726 Y0.3155
G01 X35.6830 Y0.3158
G01 X35.6933 Y0.3165
G01 X35.7086 Y0.3186
G01 X35.7768 Y0.3338
G01 X35.7914 Y0.3380
G01 X35.8057 Y0.3433
G01 X35.8195 Y0.3496
G01 X35.8329 Y0.3568
G01 X35.8498 Y0.3680
G01 X35.8617 Y0.3774
G01 X35.9177 Y0.4272
G01 X35.9290 Y0.4381
G01 X35.9394 Y0.4497
G01 X35.9459 Y0.4579
G01 X35.9519 Y0.4664
G01 X35.9602 Y0.4797
G01 X35.9674 Y0.4935
G01 X35.9736 Y0.5079
G01 X35.9788 Y0.5227
G01 X36.0002 Y0.5998
G01 X36.0034 Y0.6145
G01 X36.0055 Y0.6293
G01 X36.0065 Y0.6443
G01 X36.0066 Y0.6543
G01 X35.8568 Y11.1309
G01 X35.8564 Y11.1415
G01 X35.8554 Y11.1520
G01 X35.8530 Y11.1677
G01 X35.8362 Y11.2371
G01 X35.8316 Y11.2517
G01 X35.8260 Y11.2660
G01 X35.8194 Y11.2799
G01 X35.8117 Y11.2932
G01 X35.8031 Y11.3059
G01 X35.7902 Y11.3218
G01 X35.7317 Y11.3840
G01 X35.7200 Y11.3945
G01 X35.7076 Y11.4040
G01 X35.6946 Y11.4126
G01 X35.6855 Y11.4178
G01 X35.6762 Y11.4225
G01 X35.6667 Y11.4268
G01 X35.6570 Y11.4306
G01 X35.6421 Y11.4353
G01 X35.5693 Y11.4537
G01 X35.5497 Y11.4577
G01 X35.5348 Y11.4594
G01 X35.5248 Y11.4600
G01 X35.5098 Y11.4599
G01 X34.8735 Y11.4351
G01 X30.9219 Y11.5319
G01 X30.9113 Y11.5316
G01 X30.9008 Y11.5308
G01 X30.8851 Y11.5286
G01 X30.8254 Y11.5165
G01 X30.8055 Y11.5114
G01 X30.7863 Y11.5044
G01 X30.7678 Y11.4956
G01 X30.7503 Y11.4850
G01 X30.7339 Y11.4727
G01 X30.6772 Y11.4237
G01 X30.6657 Y11.4130
G01 X30.6551 Y11.4015
G01 X30.6486 Y11.3934
G01 X30.6395 Y11.3807
G01 X30.6313 Y11.3673
G01 X30.6242 Y11.3534
G01 X30.6201 Y11.3438
G01 X30.6164 Y11.3341
G01 X30.5935 Y11.2571
G01 X30.5898 Y11.2426
G01 X30.5872 Y11.2278
G01 X30.5860 Y11.2179
G01 X30.5851 Y11.2029
G01 X30.5850 Y7.1843
G01 X19.9735 Y7.1458
G01 X19.9459 Y11.0285
G01 X19.9456 Y11.0393
G01 X19.9440 Y11.0553
G01 X19.9412 Y11.0711
G01 X19.9255 Y11.1363
G01 X19.9209 Y11.1511
G01 X19.9153 Y11.1655
G01 X19.9110 Y11.1749
G01 X19.9036 Y11.1885
G01 X19.8982 Y11.1972
G01 X19.8923 Y11.2057
G01 X19.8828 Y11.2179
G01 X19.8245 Y11.2803
G01 X19.8131 Y11.2910
G01 X19.8010 Y11.3009
G01 X19.7925 Y11.3069
G01 X19.7792 Y11.3152
G01 X19.7701 Y11.3202
G01 X19.7559 Y11.3267
G01 X19.7461 Y11.3305
G01 X19.7362 Y11.3338
G01 X19.6584 Y11.3537
G01 X19.6438 Y11.3568
G01 X19.6289 Y11.3589
G01 X19.6140 Y11.3599
G01 X19.5990 Y11.3599
G01 X13.2275 Y11.1130
G01 X13.0824 Y15.2759
G01 X15.6274 Y15.2858
G01 X15.6398 Y15.2722
G01 X15.6508 Y15.2614
G01 X15.7510 Y15.1710
G01 X15.7591 Y15.1646
G01 X15.8677 Y15.0844
G01 X15.9833 Y15.0148
G01 X15.9922 Y15.0098
G01 X16.0014 Y15.0051
G01 X16.1235 Y14.9477
G01 X16.2505 Y14.9020
G01 X16.2603 Y14.8987
G01 X16.3911 Y14.8657
G01 X16.4012 Y14.8635
G01 X16.5346 Y14.8434
