(G-CODE GENERATED BY FLATCAM v8.994 - www.flatcam.org - Version Date: 2020/11/7)

(Name: F_F-F_Cu.gbr_iso_combined_cnc)
(Type: G-code from Geometry)
(Units: MM)

(Created on Thursday, 15 January 2026 at 13:14)


G01 F120.00

M5
G00 Z15.0000
G00 X0.0000 Y0.0000
T1
(MSG, Change to Tool Dia = 0.1938)
M0
G00 Z15.0000
        
M03 S10000.0
G01 F120.00
G00 X0.6638 Y3.0073
G01 F60.00
G01 Z-0.0750
G01 F120.00
G01 X0.6734 Y2.8112
G01 X0.6743 Y2.7984
G01 X0.6769 Y2.7759
G01 X0.7057 Y2.5818
G01 X0.7098 Y2.5595
G01 X0.7126 Y2.5470
G01 X0.7603 Y2.3566
G01 X0.7637 Y2.3442
G01 X0.7706 Y2.3226
G01 X0.8367 Y2.1378
G01 X0.8413 Y2.1258
G01 X0.8503 Y2.1050
G01 X0.9342 Y1.9276
G01 X0.9446 Y1.9075
G01 X0.9509 Y1.8963
G01 X1.0518 Y1.7279
G01 X1.0587 Y1.7171
G01 X1.0716 Y1.6984
G01 X1.1885 Y1.5408
G01 X1.1964 Y1.5306
G01 X1.2110 Y1.5133
G01 X1.3428 Y1.3679
G01 X1.3586 Y1.3517
G01 X1.3679 Y1.3428
G01 X1.5133 Y1.2110
G01 X1.5231 Y1.2026
G01 X1.5408 Y1.1885
G01 X1.6984 Y1.0716
G01 X1.7089 Y1.0642
G01 X1.7279 Y1.0518
G01 X1.8963 Y0.9509
G01 X1.9075 Y0.9446
G01 X1.9276 Y0.9342
G01 X2.1050 Y0.8503
G01 X2.1258 Y0.8413
G01 X2.1378 Y0.8367
G01 X2.3226 Y0.7706
G01 X2.3442 Y0.7637
G01 X2.3566 Y0.7603
G01 X2.5470 Y0.7126
G01 X2.5691 Y0.7079
G01 X2.5818 Y0.7057
G01 X2.7759 Y0.6769
G01 X2.7887 Y0.6753
G01 X2.8112 Y0.6734
G01 X3.0073 Y0.6638
G01 X3.0201 Y0.6635
G01 X3.0428 Y0.6638
G01 X3.2388 Y0.6734
G01 X3.2614 Y0.6753
G01 X3.2741 Y0.6769
G01 X3.4683 Y0.7057
G01 X3.4809 Y0.7079
G01 X3.5031 Y0.7126
G01 X3.6935 Y0.7603
G01 X3.7058 Y0.7637
G01 X3.7274 Y0.7706
G01 X3.9122 Y0.8367
G01 X3.9242 Y0.8413
G01 X3.9450 Y0.8503
G01 X4.0898 Y0.9188
G01 X4.0745 Y0.9027
G01 X4.0626 Y0.8880
G01 X4.0553 Y0.8778
G01 X4.0484 Y0.8672
G01 X4.0392 Y0.8507
G01 X4.0337 Y0.8394
G01 X4.0046 Y0.7758
G01 X3.9995 Y0.7639
G01 X3.9930 Y0.7455
G01 X3.9894 Y0.7330
G01 X3.9865 Y0.7204
G01 X3.9832 Y0.7012
G01 X3.9814 Y0.6818
G01 X3.9810 Y0.6623
G01 X3.9821 Y0.6428
G01 X3.9837 Y0.6299
G01 X3.9936 Y0.5608
G01 X3.9958 Y0.5480
G01 X3.9986 Y0.5353
G01 X4.0020 Y0.5227
G01 X4.0083 Y0.5043
G01 X4.0132 Y0.4923
G01 X4.0188 Y0.4805
G01 X4.0282 Y0.4635
G01 X4.0388 Y0.4471
G01 X4.0506 Y0.4316
G01 X4.1006 Y0.3739
G01 X4.1093 Y0.3643
G01 X4.1186 Y0.3551
G01 X4.1282 Y0.3464
G01 X4.1383 Y0.3382
G01 X4.1488 Y0.3305
G01 X4.1652 Y0.3200
G01 X4.1823 Y0.3107
G01 X4.2001 Y0.3027
G01 X4.2184 Y0.2961
G01 X4.2916 Y0.2745
G01 X4.3037 Y0.2713
G01 X4.3158 Y0.2686
G01 X4.3281 Y0.2665
G01 X4.3467 Y0.2645
G01 X4.3654 Y0.2639
G01 X35.6726 Y0.2639
G01 X35.6855 Y0.2642
G01 X35.6983 Y0.2651
G01 X35.7175 Y0.2678
G01 X35.7301 Y0.2703
G01 X35.7832 Y0.2822
G01 X35.7955 Y0.2853
G01 X35.8075 Y0.2889
G01 X35.8194 Y0.2932
G01 X35.8311 Y0.2980
G01 X35.8426 Y0.3034
G01 X35.8537 Y0.3093
G01 X35.8646 Y0.3157
G01 X35.8751 Y0.3227
G01 X35.8853 Y0.3301
G01 X35.8951 Y0.3381
G01 X35.9568 Y0.3931
G01 X35.9706 Y0.4069
G01 X35.9791 Y0.4167
G01 X35.9872 Y0.4269
G01 X35.9947 Y0.4375
G01 X36.0017 Y0.4485
G01 X36.0112 Y0.4655
G01 X36.0193 Y0.4832
G01 X36.0262 Y0.5014
G01 X36.0300 Y0.5139
G01 X36.0487 Y0.5812
G01 X36.0517 Y0.5932
G01 X36.0542 Y0.6054
G01 X36.0568 Y0.6239
G01 X36.0578 Y0.6364
G01 X36.0582 Y0.6488
G01 X35.9084 Y11.1317
G01 X35.9079 Y11.1448
G01 X35.9067 Y11.1579
G01 X35.9049 Y11.1710
G01 X35.9024 Y11.1839
G01 X35.8876 Y11.2444
G01 X35.8824 Y11.2628
G01 X35.8781 Y11.2749
G01 X35.8733 Y11.2867
G01 X35.8650 Y11.3039
G01 X35.8588 Y11.3151
G01 X35.8521 Y11.3259
G01 X35.8448 Y11.3364
G01 X35.8370 Y11.3465
G01 X35.8288 Y11.3562
G01 X35.7767 Y11.4119
G01 X35.7676 Y11.4212
G01 X35.7580 Y11.4300
G01 X35.7480 Y11.4383
G01 X35.7376 Y11.4461
G01 X35.7268 Y11.4533
G01 X35.7157 Y11.4601
G01 X35.6985 Y11.4691
G01 X35.6866 Y11.4744
G01 X35.6745 Y11.4791
G01 X35.6622 Y11.4832
G01 X35.6497 Y11.4867
G01 X35.5758 Y11.5052
G01 X35.5575 Y11.5087
G01 X35.5451 Y11.5103
G01 X35.5327 Y11.5113
G01 X35.5203 Y11.5117
G01 X35.5078 Y11.5115
G01 X34.8731 Y11.4868
G01 X30.9219 Y11.5835
G01 X30.9087 Y11.5832
G01 X30.8956 Y11.5822
G01 X30.8760 Y11.5795
G01 X30.8088 Y11.5657
G01 X30.7903 Y11.5607
G01 X30.7722 Y11.5544
G01 X30.7605 Y11.5495
G01 X30.7490 Y11.5440
G01 X30.7377 Y11.5379
G01 X30.7268 Y11.5313
G01 X30.7111 Y11.5204
G01 X30.6962 Y11.5085
G01 X30.6434 Y11.4627
G01 X30.6291 Y11.4494
G01 X30.6202 Y11.4400
G01 X30.6077 Y11.4250
G01 X30.5964 Y11.4091
G01 X30.5862 Y11.3925
G01 X30.5802 Y11.3810
G01 X30.5747 Y11.3692
G01 X30.5676 Y11.3511
G01 X30.5637 Y11.3387
G01 X30.5440 Y11.2716
G01 X30.5394 Y11.2536
G01 X30.5370 Y11.2413
G01 X30.5352 Y11.2290
G01 X30.5337 Y11.2104
G01 X30.5334 Y11.1979
G01 X30.5334 Y7.2357
G01 X20.0248 Y7.1976
G01 X19.9974 Y11.0356
G01 X19.9966 Y11.0489
G01 X19.9952 Y11.0622
G01 X19.9917 Y11.0820
G01 X19.9754 Y11.1497
G01 X19.9697 Y11.1681
G01 X19.9652 Y11.1801
G01 X19.9601 Y11.1919
G01 X19.9544 Y11.2034
G01 X19.9481 Y11.2146
G01 X19.9414 Y11.2256
G01 X19.9340 Y11.2361
G01 X19.9221 Y11.2513
G01 X19.9136 Y11.2608
G01 X19.8658 Y11.3118
G01 X19.8567 Y11.3211
G01 X19.8471 Y11.3299
G01 X19.8372 Y11.3382
G01 X19.8214 Y11.3497
G01 X19.8049 Y11.3600
G01 X19.7935 Y11.3662
G01 X19.7758 Y11.3744
G01 X19.7637 Y11.3791
G01 X19.7513 Y11.3832
G01 X19.7388 Y11.3867
G01 X19.6650 Y11.4052
G01 X19.6528 Y11.4077
G01 X19.6343 Y11.4103
G01 X19.6219 Y11.4113
G01 X19.6032 Y11.4117
G01 X13.2773 Y11.1666
G01 X13.1359 Y15.2244
G01 X15.6048 Y15.2341
G01 X15.6162 Y15.2231
G01 X15.7085 Y15.1394
G01 X15.7182 Y15.1310
G01 X15.7284 Y15.1231
G01 X15.8285 Y15.0489
G01 X15.8390 Y15.0415
G01 X15.8498 Y15.0346
G01 X15.9567 Y14.9706
G01 X15.9679 Y14.9642
G01 X15.9794 Y14.9585
G01 X16.0920 Y14.9052
G01 X16.1038 Y14.9000
G01 X16.1158 Y14.8953
G01 X16.2331 Y14.8534
G01 X16.2453 Y14.8493
G01 X16.2577 Y14.8459
G01 X16.3811 Y14.8150
G01 X16.2577 Y14.7841
G01 X16.2453 Y14.7807
G01 X16.2331 Y14.7767
G01 X16.1158 Y14.7347
G01 X16.1038 Y14.7301
G01 X16.0920 Y14.7249
G01 X15.9794 Y14.6716
G01 X15.9679 Y14.6658
G01 X15.9567 Y14.6595
G01 X15.8498 Y14.5954
G01 X15.8390 Y14.5885
G01 X15.8285 Y14.5811
G01 X15.7284 Y14.5069
G01 X15.7182 Y14.4990
G01 X15.7085 Y14.4906
G01 X15.6162 Y14.4069
G01 X15.6069 Y14.3980
G01 X15.5980 Y14.3887
G01 X15.5143 Y14.2964
G01 X15.5059 Y14.2867
G01 X15.4980 Y14.2765
G01 X15.4238 Y14.1764
G01 X15.4164 Y14.1659
G01 X15.4095 Y14.1551
G01 X15.3455 Y14.0482
G01 X15.3391 Y14.0370
G01 X15.3333 Y14.0255
G01 X15.2801 Y13.9129
G01 X15.2749 Y13.9011
G01 X15.2702 Y13.8892
G01 X15.2283 Y13.7718
G01 X15.2242 Y13.7596
G01 X15.2208 Y13.7472
G01 X15.1905 Y13.6263
G01 X15.1877 Y13.6138
G01 X15.1855 Y13.6012
G01 X15.1672 Y13.4779
G01 X15.1656 Y13.4651
G01 X15.1647 Y13.4523
G01 X15.1586 Y13.3278
G01 X15.1583 Y13.3150
G01 X15.1586 Y13.3022
G01 X15.1647 Y13.1777
G01 X15.1656 Y13.1649
G01 X15.1672 Y13.1521
G01 X15.1855 Y13.0289
G01 X15.1877 Y13.0162
G01 X15.1905 Y13.0037
G01 X15.2208 Y12.8828
G01 X15.2242 Y12.8704
G01 X15.2283 Y12.8582
G01 X15.2702 Y12.7409
G01 X15.2749 Y12.7289
G01 X15.2801 Y12.7171
G01 X15.3333 Y12.6045
G01 X15.3391 Y12.5930
G01 X15.3455 Y12.5818
G01 X15.4095 Y12.4749
G01 X15.4164 Y12.4641
G01 X15.4238 Y12.4536
G01 X15.4980 Y12.3535
G01 X15.5059 Y12.3434
G01 X15.5143 Y12.3336
G01 X15.5980 Y12.2413
G01 X15.6069 Y12.2320
G01 X15.6162 Y12.2231
G01 X15.7085 Y12.1394
G01 X15.7182 Y12.1310
G01 X15.7284 Y12.1231
G01 X15.8285 Y12.0489
G01 X15.8390 Y12.0415
G01 X15.8498 Y12.0346
G01 X15.9567 Y11.9706
G01 X15.9679 Y11.9642
G01 X15.9794 Y11.9585
G01 X16.0920 Y11.9052
G01 X16.1038 Y11.9000
G01 X16.1158 Y11.8953
G01 X16.2392 Y11.8513
G01 X16.2577 Y11.8459
G01 X16.3786 Y11.8156
G01 X16.3911 Y11.8128
G01 X16.4037 Y11.8106
G01 X16.5270 Y11.7923
G01 X16.5398 Y11.7908
G01 X16.5526 Y11.7898
G01 X16.6771 Y11.7837
G01 X16.6899 Y11.7834
G01 X16.7027 Y11.7837
G01 X16.8272 Y11.7898
G01 X16.8400 Y11.7908
G01 X16.8528 Y11.7923
G01 X16.9761 Y11.8106
G01 X16.9887 Y11.8128
G01 X17.0012 Y11.8156
G01 X17.1221 Y11.8459
G01 X17.1345 Y11.8493
G01 X17.1467 Y11.8534
G01 X17.2640 Y11.8953
G01 X17.2819 Y11.9025
G01 X17.4004 Y11.9585
G01 X17.4119 Y11.9642
G01 X17.4231 Y11.9706
G01 X17.5300 Y12.0346
G01 X17.5408 Y12.0415
G01 X17.5513 Y12.0489
G01 X17.6514 Y12.1231
G01 X17.6616 Y12.1310
G01 X17.6713 Y12.1394
G01 X17.7683 Y12.2275
G01 X17.7818 Y12.2413
G01 X17.8655 Y12.3336
G01 X17.8739 Y12.3434
G01 X17.8818 Y12.3535
G01 X17.9598 Y12.4588
G01 X17.9703 Y12.4749
G01 X18.0376 Y12.5874
G01 X18.0465 Y12.6045
G01 X18.0695 Y12.6532
G01 X21.0709 Y12.6532
G01 X21.8632 Y11.8609
G01 X21.8632 Y10.7151
G01 X21.7673 Y10.6698
G01 X21.7559 Y10.6640
G01 X21.7447 Y10.6577
G01 X21.6294 Y10.5885
G01 X21.6185 Y10.5817
G01 X21.6080 Y10.5743
G01 X21.5000 Y10.4942
G01 X21.4899 Y10.4863
G01 X21.4802 Y10.4779
G01 X21.3806 Y10.3876
G01 X21.3713 Y10.3787
G01 X21.3624 Y10.3694
G01 X21.2721 Y10.2698
G01 X21.2637 Y10.2601
G01 X21.2558 Y10.2500
G01 X21.1758 Y10.1420
G01 X21.1684 Y10.1315
G01 X21.1615 Y10.1206
G01 X21.0924 Y10.0053
G01 X21.0860 Y9.9942
G01 X21.0803 Y9.9827
G01 X21.0228 Y9.8611
G01 X21.0176 Y9.8494
G01 X21.0130 Y9.8374
G01 X20.9677 Y9.7108
G01 X20.9636 Y9.6986
G01 X20.9602 Y9.6863
G01 X20.9275 Y9.5559
G01 X20.9247 Y9.5433
G01 X20.9225 Y9.5307
G01 X20.9028 Y9.3977
G01 X20.9012 Y9.3849
G01 X20.9003 Y9.3721
G01 X20.8937 Y9.2378
G01 X20.8934 Y9.2250
G01 X20.8937 Y9.2122
G01 X20.9003 Y9.0779
G01 X20.9012 Y9.0651
G01 X20.9028 Y9.0523
G01 X20.9225 Y8.9193
G01 X20.9247 Y8.9067
G01 X20.9275 Y8.8942
G01 X20.9602 Y8.7638
G01 X20.9636 Y8.7514
G01 X20.9677 Y8.7392
G01 X21.0130 Y8.6126
G01 X21.0176 Y8.6006
G01 X21.0228 Y8.5889
G01 X21.0803 Y8.4673
G01 X21.0860 Y8.4559
G01 X21.0924 Y8.4447
G01 X21.1615 Y8.3294
G01 X21.1684 Y8.3185
G01 X21.1758 Y8.3080
G01 X21.2558 Y8.2000
G01 X21.2637 Y8.1899
G01 X21.2721 Y8.1802
G01 X21.3624 Y8.0806
G01 X21.3713 Y8.0713
G01 X21.3806 Y8.0624
G01 X21.4802 Y7.9721
G01 X21.4899 Y7.9637
G01 X21.5000 Y7.9558
G01 X21.6080 Y7.8758
G01 X21.6185 Y7.8684
G01 X21.6294 Y7.8615
G01 X21.7447 Y7.7924
G01 X21.7559 Y7.7860
G01 X21.7673 Y7.7803
G01 X21.8889 Y7.7228
G01 X21.9006 Y7.7176
G01 X21.9126 Y7.7130
G01 X22.0392 Y7.6677
G01 X22.0514 Y7.6636
G01 X22.0638 Y7.6602
G01 X22.1942 Y7.6275
G01 X22.2067 Y7.6247
G01 X22.2193 Y7.6225
G01 X22.3523 Y7.6028
G01 X22.3651 Y7.6012
G01 X22.3779 Y7.6003
G01 X22.5122 Y7.5937
G01 X22.5250 Y7.5934
G01 X22.5378 Y7.5937
G01 X22.6721 Y7.6003
G01 X22.6849 Y7.6012
G01 X22.6977 Y7.6028
G01 X22.8307 Y7.6225
G01 X22.8433 Y7.6247
G01 X22.8559 Y7.6275
G01 X22.9863 Y7.6602
G01 X22.9986 Y7.6636
G01 X23.0108 Y7.6677
G01 X23.1434 Y7.7152
G01 X23.1611 Y7.7228
G01 X23.2827 Y7.7803
G01 X23.2942 Y7.7860
G01 X23.3053 Y7.7924
G01 X23.4206 Y7.8615
G01 X23.4315 Y7.8684
G01 X23.4420 Y7.8758
G01 X23.5500 Y7.9558
G01 X23.5601 Y7.9637
G01 X23.5698 Y7.9721
G01 X23.6694 Y8.0624
G01 X23.6787 Y8.0713
G01 X23.6876 Y8.0806
G01 X23.7779 Y8.1802
G01 X23.7863 Y8.1899
G01 X23.7942 Y8.2000
G01 X23.8743 Y8.3080
G01 X23.8817 Y8.3185
G01 X23.8885 Y8.3294
G01 X23.9577 Y8.4447
G01 X23.9640 Y8.4559
G01 X23.9698 Y8.4673
G01 X24.0272 Y8.5889
G01 X24.0324 Y8.6006
G01 X24.0371 Y8.6126
G01 X24.0824 Y8.7392
G01 X24.0864 Y8.7514
G01 X24.0898 Y8.7638
G01 X24.1225 Y8.8942
G01 X24.1253 Y8.9067
G01 X24.1275 Y8.9193
G01 X24.1472 Y9.0523
G01 X24.1488 Y9.0651
G01 X24.1497 Y9.0779
G01 X24.1563 Y9.2122
G01 X24.1566 Y9.2314
G01 X24.1497 Y9.3721
G01 X24.1488 Y9.3849
G01 X24.1472 Y9.3977
G01 X24.1275 Y9.5307
G01 X24.1253 Y9.5433
G01 X24.1225 Y9.5559
G01 X24.0898 Y9.6863
G01 X24.0864 Y9.6986
G01 X24.0824 Y9.7108
G01 X24.0371 Y9.8374
G01 X24.0324 Y9.8494
G01 X24.0272 Y9.8611
G01 X23.9698 Y9.9827
G01 X23.9640 Y9.9942
G01 X23.9577 Y10.0053
G01 X23.8885 Y10.1206
G01 X23.8817 Y10.1315
G01 X23.8743 Y10.1420
G01 X23.7942 Y10.2500
G01 X23.7863 Y10.2601
G01 X23.7779 Y10.2698
G01 X23.6876 Y10.3694
G01 X23.6787 Y10.3787
G01 X23.6694 Y10.3876
G01 X23.5698 Y10.4779
G01 X23.5601 Y10.4863
G01 X23.5500 Y10.4942
G01 X23.4420 Y10.5743
G01 X23.4315 Y10.5817
G01 X23.4206 Y10.5885
G01 X23.3053 Y10.6577
G01 X23.2942 Y10.6640
G01 X23.2827 Y10.6698
G01 X23.1868 Y10.7151
G01 X23.1868 Y12.1350
G01 X23.1865 Y12.1478
G01 X23.1842 Y12.1935
G01 X23.1821 Y12.2126
G01 X23.1763 Y12.2515
G01 X23.1741 Y12.2641
G01 X23.1713 Y12.2767
G01 X23.1583 Y12.3271
G01 X23.1543 Y12.3393
G01 X23.1365 Y12.3883
G01 X23.1145 Y12.4355
G01 X23.1087 Y12.4470
G01 X23.0822 Y12.4919
G01 X23.0753 Y12.5027
G01 X23.0679 Y12.5132
G01 X23.0445 Y12.5447
G01 X23.0325 Y12.5598
G01 X23.0019 Y12.5937
G01 X22.9930 Y12.6030
G01 X21.8084 Y13.7875
G01 X21.7746 Y13.8182
G01 X21.7649 Y13.8266
G01 X21.7232 Y13.8579
G01 X21.7127 Y13.8653
G01 X21.7019 Y13.8722
G01 X21.6570 Y13.8987
G01 X21.6100 Y13.9213
G01 X21.5923 Y13.9288
G01 X21.5493 Y13.9443
G01 X21.5371 Y13.9483
G01 X21.5248 Y13.9518
G01 X21.4741 Y13.9641
G01 X21.4226 Y13.9721
G01 X21.4099 Y13.9737
G01 X21.3971 Y13.9746
G01 X21.3514 Y13.9768
G01 X18.0695 Y13.9768
G01 X18.0465 Y14.0255
G01 X18.0376 Y14.0426
G01 X17.9669 Y14.1606
G01 X17.9560 Y14.1764
G01 X17.8779 Y14.2817
G01 X17.8655 Y14.2964
G01 X17.7818 Y14.3887
G01 X17.7729 Y14.3980
G01 X17.7636 Y14.4069
G01 X17.6713 Y14.4906
G01 X17.6565 Y14.5030
G01 X17.5513 Y14.5811
G01 X17.5408 Y14.5885
G01 X17.5300 Y14.5954
G01 X17.4231 Y14.6595
G01 X17.4119 Y14.6658
G01 X17.4004 Y14.6716
G01 X17.2878 Y14.7249
G01 X17.2760 Y14.7301
G01 X17.2640 Y14.7347
G01 X17.1467 Y14.7767
G01 X17.1345 Y14.7807
G01 X17.1221 Y14.7841
G01 X16.9987 Y14.8150
G01 X17.1221 Y14.8459
G01 X17.1345 Y14.8493
G01 X17.1467 Y14.8534
G01 X17.2640 Y14.8953
G01 X17.2760 Y14.9000
G01 X17.2878 Y14.9052
G01 X17.4004 Y14.9585
G01 X17.4119 Y14.9642
G01 X17.4231 Y14.9706
G01 X17.5300 Y15.0346
G01 X17.5408 Y15.0415
G01 X17.5513 Y15.0489
G01 X17.6514 Y15.1231
G01 X17.6616 Y15.1310
G01 X17.6713 Y15.1394
G01 X17.7636 Y15.2231
G01 X17.7729 Y15.2320
G01 X17.7829 Y15.2426
G01 X20.4362 Y15.2529
G01 X20.4491 Y15.2533
G01 X20.4683 Y15.2550
G01 X20.4811 Y15.2570
G01 X20.5412 Y15.2692
G01 X20.5535 Y15.2724
G01 X20.5655 Y15.2761
G01 X20.5774 Y15.2804
G01 X20.5891 Y15.2852
G01 X20.6005 Y15.2906
G01 X20.6171 Y15.2998
G01 X20.6278 Y15.3065
G01 X20.6381 Y15.3138
G01 X20.6481 Y15.3215
G01 X20.7023 Y15.3657
G01 X20.7121 Y15.3741
G01 X20.7216 Y15.3831
G01 X20.7305 Y15.3924
G01 X20.7390 Y15.4023
G01 X20.7470 Y15.4125
G01 X20.7545 Y15.4231
G01 X20.7647 Y15.4397
G01 X20.7708 Y15.4512
G01 X20.7764 Y15.4630
G01 X20.7813 Y15.4750
G01 X20.7856 Y15.4872
G01 X20.8073 Y15.5537
G01 X20.8109 Y15.5656
G01 X20.8139 Y15.5777
G01 X20.8163 Y15.5899
G01 X20.8182 Y15.6022
G01 X20.8194 Y15.6146
G01 X20.8201 Y15.6270
G01 X20.8827 Y17.7178
G01 X20.8827 Y17.7301
G01 X20.8818 Y17.7486
G01 X20.8795 Y17.7670
G01 X20.8654 Y17.8358
G01 X20.8625 Y17.8484
G01 X20.8568 Y17.8671
G01 X20.8523 Y17.8792
G01 X20.8444 Y17.8970
G01 X20.8353 Y17.9142
G01 X20.8284 Y17.9253
G01 X20.8211 Y17.9360
G01 X20.8091 Y17.9513
G01 X20.7584 Y18.0084
G01 X20.7495 Y18.0179
G01 X20.7353 Y18.0313
G01 X20.7202 Y18.0436
G01 X20.7042 Y18.0547
G01 X20.6874 Y18.0646
G01 X20.6758 Y18.0705
G01 X20.6640 Y18.0758
G01 X20.6457 Y18.0827
G01 X20.6333 Y18.0865
G01 X20.5600 Y18.1069
G01 X20.5418 Y18.1109
G01 X20.5233 Y18.1135
G01 X20.5109 Y18.1145
G01 X20.4922 Y18.1149
G01 X6.0637 Y17.9277
G01 X0.6533 Y17.9815
G01 X0.6342 Y17.9810
G01 X0.6215 Y17.9799
G01 X0.6089 Y17.9781
G01 X0.5964 Y17.9758
G01 X0.5375 Y17.9632
G01 X0.5254 Y17.9600
G01 X0.5134 Y17.9562
G01 X0.5016 Y17.9519
G01 X0.4900 Y17.9470
G01 X0.4787 Y17.9415
G01 X0.4676 Y17.9355
G01 X0.4569 Y17.9290
G01 X0.4464 Y17.9219
G01 X0.4364 Y17.9144
G01 X0.4267 Y17.9064
G01 X0.3690 Y17.8563
G01 X0.3596 Y17.8474
G01 X0.3507 Y17.8379
G01 X0.3382 Y17.8229
G01 X0.3305 Y17.8125
G01 X0.3234 Y17.8016
G01 X0.3137 Y17.7847
G01 X0.3052 Y17.7672
G01 X0.2981 Y17.7490
G01 X0.2942 Y17.7366
G01 X0.2745 Y17.6696
G01 X0.2713 Y17.6576
G01 X0.2686 Y17.6454
G01 X0.2665 Y17.6331
G01 X0.2651 Y17.6208
G01 X0.2640 Y17.6021
G01 X0.2639 Y4.3654
G01 X0.2642 Y4.3525
G01 X0.2659 Y4.3332
G01 X0.2731 Y4.2844
G01 X0.2756 Y4.2721
G01 X0.2786 Y4.2599
G01 X0.2823 Y4.2478
G01 X0.2865 Y4.2359
G01 X0.2912 Y4.2242
G01 X0.2966 Y4.2128
G01 X0.3056 Y4.1962
G01 X0.3123 Y4.1855
G01 X0.3506 Y4.1271
G01 X0.3580 Y4.1165
G01 X0.3660 Y4.1062
G01 X0.3744 Y4.0963
G01 X0.3879 Y4.0822
G01 X0.3975 Y4.0735
G01 X0.4075 Y4.0652
