(G-CODE GENERATED BY FLATCAM v8.994 - www.flatcam.org - Version Date: 2020/11/7)

(Name: F_F-F_Cu.gbr_iso_combined_cnc)
(Type: G-code from Geometry)
(Units: MM)

(Created on Thursday, 15 January 2026 at 13:10)

(This preprocessor is the default preprocessor used by FlatCAM.)
(It is made to work with MACH3 compatible motion controllers.)

(TOOL DIAMETER: 3.2152 mm)
(Feedrate_XY: 120.0 mm/min)
(Feedrate_Z: 60.0 mm/min)
(Feedrate rapids 1500.0 mm/min)

(Z_Cut: -0.075 mm)
(Z_Move: 2.0 mm)
(Z Start: None mm)
(Z End: 15.0 mm)
(X,Y End: 0.0000, 0.0000 mm)
(Steps per circle: 64)
(Preprocessor Geometry: Default_no_M6)

(X range:   -3.8150 ...   53.4655  mm)
(Y range:   -3.8150 ...   43.4655  mm)

(Spindle Speed: 10000.0 RPM)
G21
G90
G94

G01 F120.00

M5
G00 Z15.0000
G00 X0.0000 Y0.0000
T1
(MSG, Change to Tool Dia = 3.2152)
M0
G00 Z15.0000
        
M03 S10000.0
G01 F120.00
G00 X2.7347 Y3.0250
G01 F60.00
G01 Z-0.0750
G01 F120.00
G01 X2.7361 Y2.9966
G01 X2.7403 Y2.9684
G01 X2.7472 Y2.9407
G01 X2.7568 Y2.9139
G01 X2.7690 Y2.8882
G01 X2.7836 Y2.8637
G01 X2.8006 Y2.8409
G01 X2.8197 Y2.8197
G01 X2.8409 Y2.8006
G01 X2.8637 Y2.7836
G01 X2.8882 Y2.7690
G01 X2.9139 Y2.7568
G01 X2.9407 Y2.7472
G01 X2.9684 Y2.7403
G01 X2.9966 Y2.7361
G01 X3.0250 Y2.7347
G01 X3.0535 Y2.7361
G01 X3.0816 Y2.7403
G01 X3.1093 Y2.7472
G01 X3.1361 Y2.7568
G01 X3.1619 Y2.7690
G01 X3.1863 Y2.7836
G01 X3.2092 Y2.8006
G01 X3.2303 Y2.8197
G01 X3.2494 Y2.8409
G01 X3.2664 Y2.8637
G01 X3.2810 Y2.8882
G01 X3.2932 Y2.9139
G01 X3.3028 Y2.9407
G01 X3.3097 Y2.9684
G01 X3.3139 Y2.9966
G01 X3.3153 Y3.0250
G01 X3.3139 Y3.0535
G01 X3.3097 Y3.0816
G01 X3.3028 Y3.1093
G01 X3.2932 Y3.1361
G01 X3.2810 Y3.1619
G01 X3.2664 Y3.1863
G01 X3.2494 Y3.2092
G01 X3.2303 Y3.2303
G01 X3.2092 Y3.2494
G01 X3.1863 Y3.2664
G01 X3.1619 Y3.2810
G01 X3.1361 Y3.2932
G01 X3.1093 Y3.3028
G01 X3.0816 Y3.3097
G01 X3.0535 Y3.3139
G01 X3.0250 Y3.3153
G01 X2.9966 Y3.3139
G01 X2.9684 Y3.3097
G01 X2.9407 Y3.3028
G01 X2.9139 Y3.2932
G01 X2.8882 Y3.2810
G01 X2.8637 Y3.2664
G01 X2.8409 Y3.2494
G01 X2.8197 Y3.2303
G01 X2.8006 Y3.2092
G01 X2.7836 Y3.1863
G01 X2.7690 Y3.1619
G01 X2.7568 Y3.1361
G01 X2.7472 Y3.1093
G01 X2.7403 Y3.0816
G01 X2.7361 Y3.0535
G01 X2.7347 Y3.0250
G00 Z2.0000
G00 X6.4984 Y19.2794
G01 F60.00
G01 Z-0.0750
G01 F120.00
G01 X13.5432 Y19.3708
G01 X13.4990 Y19.3917
G01 X13.4635 Y19.4090
G01 X13.4285 Y19.4272
G01 X13.3940 Y19.4462
G01 X13.3599 Y19.4661
G01 X13.2530 Y19.5302
G01 X13.2194 Y19.5509
G01 X13.1863 Y19.5724
G01 X13.1538 Y19.5947
G01 X13.1218 Y19.6178
G01 X13.0217 Y19.6921
G01 X12.9903 Y19.7159
G01 X12.9595 Y19.7406
G01 X12.9293 Y19.7660
G01 X12.8997 Y19.7921
G01 X12.8074 Y19.8758
G01 X12.7785 Y19.9027
G01 X12.7502 Y19.9302
G01 X12.7146 Y19.9672
G01 X7.5561 Y19.9672
G01 X7.5298 Y19.9402
G01 X7.5015 Y19.9127
G01 X7.4726 Y19.8858
G01 X7.3803 Y19.8021
G01 X7.3507 Y19.7760
G01 X7.3205 Y19.7506
G01 X7.2897 Y19.7259
G01 X7.2583 Y19.7021
G01 X7.1582 Y19.6278
G01 X7.1263 Y19.6047
G01 X7.0937 Y19.5824
G01 X7.0606 Y19.5609
G01 X7.0271 Y19.5402
G01 X6.9202 Y19.4761
G01 X6.8861 Y19.4562
G01 X6.8515 Y19.4372
G01 X6.8165 Y19.4190
G01 X6.7810 Y19.4017
G01 X6.6684 Y19.3484
G01 X6.6325 Y19.3320
G01 X6.5962 Y19.3165
G01 X6.5596 Y19.3018
G01 X6.4984 Y19.2794
G00 Z2.0000
G00 X16.0961 Y19.4040
G01 F60.00
G01 Z-0.0750
G01 F120.00
G01 X16.9519 Y19.4151
G01 X16.9285 Y19.4272
G01 X16.8940 Y19.4462
G01 X16.8599 Y19.4661
G01 X16.7530 Y19.5302
G01 X16.7194 Y19.5509
G01 X16.6863 Y19.5724
G01 X16.6538 Y19.5947
G01 X16.6218 Y19.6178
G01 X16.5350 Y19.6822
G01 X16.4482 Y19.6178
G01 X16.4163 Y19.5947
G01 X16.3837 Y19.5724
G01 X16.3506 Y19.5509
G01 X16.3171 Y19.5302
G01 X16.2102 Y19.4661
G01 X16.1761 Y19.4462
G01 X16.1415 Y19.4272
G01 X16.0961 Y19.4040
G00 Z2.0000
G00 X19.6835 Y19.4505
G01 F60.00
G01 Z-0.0750
G01 F120.00
G01 X20.4747 Y19.4608
G01 X20.5130 Y19.4608
G01 X20.5512 Y19.4600
G01 X20.5895 Y19.4582
G01 X20.6276 Y19.4555
G01 X20.6657 Y19.4519
G01 X20.7037 Y19.4474
G01 X20.7416 Y19.4420
G01 X20.7793 Y19.4357
G01 X20.8169 Y19.4285
G01 X20.8543 Y19.4204
G01 X20.8915 Y19.4114
G01 X20.9285 Y19.4016
G01 X20.9958 Y19.3827
G01 X21.0341 Y19.3715
G01 X21.0721 Y19.3593
G01 X21.1098 Y19.3462
G01 X21.1472 Y19.3322
G01 X21.1842 Y19.3172
G01 X21.2208 Y19.3013
G01 X21.2570 Y19.2845
G01 X21.2928 Y19.2669
G01 X21.3282 Y19.2483
G01 X21.3630 Y19.2288
G01 X21.3974 Y19.2085
G01 X21.4313 Y19.1874
G01 X21.4646 Y19.1654
G01 X21.4974 Y19.1426
G01 X21.5296 Y19.1190
G01 X21.5612 Y19.0946
G01 X21.5921 Y19.0694
G01 X21.6225 Y19.0435
G01 X21.6522 Y19.0168
G01 X21.6812 Y18.9894
G01 X21.7095 Y18.9613
G01 X21.7372 Y18.9324
G01 X21.7641 Y18.9029
G01 X21.8105 Y18.8507
G01 X21.8366 Y18.8206
G01 X21.8620 Y18.7898
G01 X21.8867 Y18.7584
G01 X21.9105 Y18.7264
G01 X21.9335 Y18.6938
G01 X21.9557 Y18.6607
G01 X21.9771 Y18.6270
G01 X21.9977 Y18.5928
G01 X22.0173 Y18.5581
G01 X22.0362 Y18.5229
G01 X22.0541 Y18.4873
G01 X22.0711 Y18.4512
G01 X22.0873 Y18.4147
G01 X22.1025 Y18.3778
G01 X22.1169 Y18.3406
G01 X22.1302 Y18.3030
G01 X22.1427 Y18.2651
G01 X22.1542 Y18.2269
G01 X22.1648 Y18.1884
G01 X22.1744 Y18.1497
G01 X22.1830 Y18.1107
G01 X22.1948 Y18.0541
G01 X22.2021 Y18.0169
G01 X22.2086 Y17.9796
G01 X22.2141 Y17.9421
G01 X22.2188 Y17.9045
G01 X22.2225 Y17.8668
G01 X22.2254 Y17.8290
G01 X22.2274 Y17.7912
G01 X22.2285 Y17.7533
G01 X22.2287 Y17.7154
G01 X22.2280 Y17.6776
G01 X22.1655 Y15.5868
G01 X22.1639 Y15.5485
G01 X22.1614 Y15.5104
G01 X22.1580 Y15.4723
G01 X22.1536 Y15.4342
G01 X22.1484 Y15.3963
G01 X22.1423 Y15.3586
G01 X22.1353 Y15.3210
G01 X22.1273 Y15.2835
G01 X22.1185 Y15.2463
G01 X22.1088 Y15.2093
G01 X22.0992 Y15.1756
G01 X22.1134 Y15.1700
G01 X22.1496 Y15.1544
G01 X22.2210 Y15.1212
G01 X22.2565 Y15.1039
G01 X22.2915 Y15.0857
G01 X22.3260 Y15.0667
G01 X22.3550 Y15.0498
G01 X22.3579 Y15.0978
G01 X22.3613 Y15.1371
G01 X22.3656 Y15.1763
G01 X22.3709 Y15.2154
G01 X22.3892 Y15.3387
G01 X22.3955 Y15.3776
G01 X22.4027 Y15.4164
G01 X22.4109 Y15.4550
G01 X22.4200 Y15.4934
G01 X22.4503 Y15.6143
G01 X22.4603 Y15.6524
G01 X22.4713 Y15.6903
G01 X22.4832 Y15.7279
G01 X22.4961 Y15.7653
G01 X22.5381 Y15.8826
G01 X22.5518 Y15.9196
G01 X22.5665 Y15.9562
G01 X22.5820 Y15.9925
G01 X22.5984 Y16.0284
G01 X22.6517 Y16.1410
G01 X22.6690 Y16.1765
G01 X22.6872 Y16.2115
G01 X22.7062 Y16.2461
G01 X22.7261 Y16.2802
G01 X22.7902 Y16.3871
G01 X22.8109 Y16.4206
G01 X22.8324 Y16.4537
G01 X22.8547 Y16.4863
G01 X22.8778 Y16.5182
G01 X22.9521 Y16.6183
G01 X22.9759 Y16.6497
G01 X23.0006 Y16.6805
G01 X23.0260 Y16.7107
G01 X23.0521 Y16.7403
G01 X23.0922 Y16.7845
G01 X23.0922 Y17.1028
G01 X23.0603 Y17.1369
G01 X22.9812 Y17.2241
G01 X22.9551 Y17.2537
G01 X22.9297 Y17.2839
G01 X22.9051 Y17.3147
G01 X22.8812 Y17.3461
G01 X22.8110 Y17.4407
G01 X22.7879 Y17.4727
G01 X22.7656 Y17.5052
G01 X22.7441 Y17.5383
G01 X22.7234 Y17.5719
G01 X22.6628 Y17.6729
G01 X22.6430 Y17.7070
G01 X22.6239 Y17.7415
G01 X22.6058 Y17.7765
G01 X22.5885 Y17.8120
G01 X22.5381 Y17.9185
G01 X22.5217 Y17.9543
G01 X22.5061 Y17.9906
G01 X22.4915 Y18.0272
G01 X22.4777 Y18.0642
G01 X22.4381 Y18.1751
G01 X22.4252 Y18.2124
G01 X22.4133 Y18.2500
G01 X22.4023 Y18.2879
G01 X22.3923 Y18.3261
G01 X22.3636 Y18.4403
G01 X22.3545 Y18.4787
G01 X22.3464 Y18.5173
G01 X22.3391 Y18.5561
G01 X22.3329 Y18.5950
G01 X22.3156 Y18.7115
G01 X22.3103 Y18.7506
G01 X22.3059 Y18.7898
G01 X22.3025 Y18.8291
G01 X22.3001 Y18.8685
G01 X22.2943 Y18.9861
G01 X22.2929 Y19.0256
G01 X22.2924 Y19.0650
G01 X22.2929 Y19.1045
G01 X22.2943 Y19.1439
G01 X22.3001 Y19.2615
G01 X22.3025 Y19.3009
G01 X22.3059 Y19.3402
G01 X22.3103 Y19.3794
G01 X22.3156 Y19.4185
G01 X22.3329 Y19.5350
G01 X22.3391 Y19.5740
G01 X22.3464 Y19.6127
G01 X22.3545 Y19.6513
G01 X22.3636 Y19.6897
G01 X22.3923 Y19.8040
G01 X22.4023 Y19.8421
G01 X22.4133 Y19.8800
G01 X22.4252 Y19.9176
G01 X22.4424 Y19.9672
G01 X20.3554 Y19.9672
G01 X20.3198 Y19.9302
G01 X20.2915 Y19.9027
G01 X20.2626 Y19.8758
G01 X20.1703 Y19.7921
G01 X20.1407 Y19.7660
G01 X20.1105 Y19.7406
G01 X20.0797 Y19.7159
G01 X20.0483 Y19.6921
G01 X19.9482 Y19.6178
G01 X19.9163 Y19.5947
G01 X19.8837 Y19.5724
G01 X19.8506 Y19.5509
G01 X19.8171 Y19.5302
G01 X19.7102 Y19.4661
G01 X19.6835 Y19.4505
G00 Z2.0000
G00 X27.8636 Y22.5572
G01 F60.00
G01 Z-0.0750
G01 F120.00
G01 X27.8844 Y22.4185
G01 X27.8897 Y22.3794
G01 X27.8941 Y22.3402
G01 X27.8975 Y22.3009
G01 X27.8999 Y22.2615
G01 X27.9057 Y22.1439
G01 X27.9071 Y22.1045
G01 X27.9076 Y22.0650
G01 X27.9071 Y22.0256
G01 X27.9057 Y21.9861
G01 X27.8999 Y21.8685
G01 X27.8975 Y21.8291
G01 X27.8941 Y21.7898
G01 X27.8897 Y21.7506
G01 X27.8844 Y21.7115
G01 X27.8672 Y21.5950
G01 X27.8609 Y21.5561
G01 X27.8537 Y21.5173
G01 X27.8455 Y21.4787
G01 X27.8364 Y21.4403
G01 X27.8078 Y21.3261
G01 X27.7977 Y21.2879
G01 X27.7867 Y21.2500
G01 X27.7748 Y21.2124
G01 X27.7620 Y21.1751
G01 X27.7223 Y21.0642
G01 X27.7085 Y21.0272
G01 X27.6939 Y20.9906
G01 X27.6784 Y20.9543
G01 X27.6619 Y20.9185
G01 X27.6116 Y20.8120
G01 X27.5943 Y20.7765
G01 X27.5761 Y20.7415
G01 X27.5571 Y20.7070
G01 X27.5372 Y20.6729
G01 X27.4724 Y20.5650
G01 X27.5372 Y20.4572
G01 X27.5571 Y20.4231
G01 X27.5761 Y20.3885
G01 X27.5943 Y20.3535
G01 X27.6116 Y20.3180
G01 X27.6619 Y20.2116
G01 X27.6784 Y20.1757
G01 X27.6939 Y20.1394
G01 X27.7085 Y20.1028
G01 X27.7223 Y20.0658
G01 X27.7620 Y19.9549
G01 X27.7748 Y19.9176
G01 X27.7867 Y19.8800
G01 X27.7977 Y19.8421
G01 X27.8078 Y19.8040
G01 X27.8364 Y19.6897
G01 X27.8455 Y19.6513
G01 X27.8537 Y19.6127
G01 X27.8609 Y19.5740
G01 X27.8672 Y19.5350
G01 X27.8844 Y19.4185
G01 X27.8897 Y19.3794
G01 X27.8941 Y19.3402
G01 X27.8975 Y19.3009
G01 X27.8999 Y19.2615
G01 X27.9057 Y19.1439
G01 X27.9071 Y19.1045
G01 X27.9076 Y19.0650
G01 X27.9071 Y19.0256
G01 X27.9057 Y18.9861
G01 X27.8999 Y18.8685
G01 X27.8975 Y18.8291
G01 X27.8941 Y18.7898
G01 X27.8897 Y18.7506
G01 X27.8844 Y18.7115
G01 X27.8672 Y18.5950
G01 X27.8609 Y18.5561
G01 X27.8537 Y18.5173
G01 X27.8455 Y18.4787
G01 X27.8364 Y18.4403
G01 X27.8078 Y18.3261
G01 X27.7977 Y18.2879
G01 X27.7867 Y18.2500
G01 X27.7748 Y18.2124
G01 X27.7620 Y18.1751
G01 X27.7223 Y18.0642
G01 X27.7085 Y18.0272
G01 X27.6939 Y17.9906
G01 X27.6784 Y17.9543
G01 X27.6619 Y17.9185
G01 X27.6116 Y17.8120
G01 X27.5943 Y17.7765
G01 X27.5761 Y17.7415
G01 X27.5571 Y17.7070
G01 X27.5372 Y17.6729
G01 X27.4767 Y17.5719
G01 X27.4560 Y17.5383
G01 X27.4344 Y17.5052
G01 X27.4121 Y17.4727
G01 X27.3890 Y17.4407
G01 X27.3189 Y17.3461
G01 X27.2950 Y17.3147
G01 X27.2703 Y17.2839
G01 X27.2449 Y17.2537
G01 X27.2188 Y17.2241
G01 X27.1397 Y17.1369
G01 X27.1078 Y17.1028
G01 X27.1078 Y17.0301
G01 X27.2026 Y16.9442
G01 X27.2315 Y16.9173
G01 X27.2598 Y16.8898
G01 X27.2873 Y16.8615
G01 X27.3142 Y16.8326
G01 X27.3979 Y16.7403
G01 X27.4240 Y16.7107
G01 X27.4494 Y16.6805
G01 X27.4741 Y16.6497
G01 X27.4980 Y16.6183
G01 X27.5722 Y16.5182
G01 X27.5953 Y16.4863
G01 X27.6176 Y16.4537
G01 X27.6392 Y16.4206
G01 X27.6599 Y16.3871
G01 X27.7239 Y16.2802
G01 X27.7438 Y16.2461
G01 X27.7628 Y16.2115
G01 X27.7810 Y16.1765
G01 X27.7983 Y16.1410
G01 X27.8516 Y16.0284
G01 X27.8680 Y15.9925
G01 X27.8836 Y15.9562
G01 X27.8982 Y15.9196
G01 X27.9120 Y15.8826
G01 X27.9540 Y15.7653
G01 X27.9668 Y15.7279
G01 X27.9787 Y15.6903
G01 X27.9897 Y15.6524
G01 X27.9997 Y15.6143
G01 X28.0300 Y15.4934
G01 X28.0391 Y15.4550
G01 X28.0473 Y15.4164
G01 X28.0545 Y15.3776
G01 X28.0608 Y15.3387
G01 X28.0791 Y15.2154
G01 X28.0844 Y15.1763
G01 X28.0888 Y15.1371
G01 X28.0910 Y15.1105
G01 X29.2553 Y16.2747
G01 X29.2835 Y16.3023
G01 X29.3124 Y16.3291
G01 X29.3711 Y16.3817
G01 X29.4013 Y16.4071
G01 X29.4321 Y16.4317
G01 X29.4950 Y16.4790
G01 X29.5270 Y16.5021
G01 X29.5595 Y16.5244
G01 X29.5926 Y16.5460
G01 X29.6262 Y16.5667
G01 X29.6940 Y16.6067
G01 X29.7285 Y16.6257
G01 X29.7636 Y16.6439
G01 X29.8345 Y16.6780
G01 X29.8704 Y16.6944
G01 X29.9067 Y16.7100
G01 X29.9433 Y16.7246
G01 X30.0173 Y16.7516
G01 X30.0546 Y16.7644
G01 X30.0922 Y16.7764
G01 X30.1301 Y16.7873
G01 X30.2063 Y16.8069
G01 X30.2447 Y16.8161
G01 X30.2833 Y16.8242
G01 X30.3221 Y16.8315
G01 X30.3999 Y16.8435
G01 X30.4390 Y16.8488
G01 X30.4782 Y16.8531
G01 X30.5175 Y16.8565
G01 X30.5569 Y16.8589
G01 X30.6356 Y16.8623
G01 X30.6750 Y16.8628
G01 X33.3239 Y16.8628
G01 X33.3502 Y16.8898
G01 X33.3772 Y16.9161
G01 X33.3772 Y17.9234
G01 X32.5482 Y18.7524
G01 X32.4685 Y18.7406
G01 X32.4294 Y18.7353
G01 X32.3902 Y18.7309
G01 X32.3509 Y18.7275
G01 X32.3115 Y18.7251
G01 X32.1939 Y18.7193
G01 X32.1545 Y18.7179
G01 X32.1150 Y18.7174
G01 X32.0756 Y18.7179
G01 X32.0361 Y18.7193
G01 X31.9185 Y18.7251
G01 X31.8791 Y18.7275
G01 X31.8398 Y18.7309
G01 X31.8006 Y18.7353
G01 X31.7615 Y18.7406
G01 X31.6450 Y18.7579
G01 X31.6061 Y18.7641
G01 X31.5673 Y18.7714
G01 X31.5287 Y18.7795
G01 X31.4903 Y18.7886
G01 X31.3761 Y18.8173
G01 X31.3379 Y18.8273
G01 X31.3000 Y18.8383
G01 X31.2624 Y18.8502
G01 X31.2251 Y18.8631
G01 X31.1142 Y18.9027
G01 X31.0772 Y18.9165
G01 X31.0406 Y18.9311
G01 X31.0043 Y18.9467
G01 X30.9685 Y18.9631
G01 X30.8620 Y19.0135
G01 X30.8265 Y19.0308
G01 X30.7915 Y19.0489
G01 X30.7570 Y19.0680
G01 X30.7229 Y19.0878
G01 X30.6219 Y19.1484
G01 X30.5883 Y19.1691
G01 X30.5552 Y19.1906
G01 X30.5227 Y19.2129
G01 X30.4907 Y19.2360
G01 X30.3961 Y19.3062
G01 X30.3647 Y19.3301
G01 X30.3339 Y19.3547
G01 X30.3037 Y19.3801
G01 X30.2741 Y19.4062
G01 X30.1869 Y19.4853
G01 X30.1580 Y19.5122
G01 X30.1297 Y19.5397
G01 X30.1022 Y19.5680
G01 X30.0753 Y19.5969
G01 X29.9962 Y19.6841
G01 X29.9701 Y19.7137
G01 X29.9447 Y19.7439
G01 X29.9201 Y19.7747
G01 X29.8962 Y19.8061
G01 X29.8260 Y19.9007
G01 X29.8029 Y19.9327
G01 X29.7806 Y19.9652
G01 X29.7591 Y19.9983
G01 X29.7384 Y20.0319
G01 X29.6778 Y20.1329
G01 X29.6580 Y20.1670
G01 X29.6389 Y20.2015
G01 X29.6208 Y20.2365
G01 X29.6035 Y20.2720
G01 X29.5531 Y20.3785
G01 X29.5367 Y20.4143
G01 X29.5211 Y20.4506
G01 X29.5065 Y20.4872
G01 X29.4927 Y20.5242
G01 X29.4531 Y20.6351
G01 X29.4402 Y20.6724
G01 X29.4283 Y20.7100
G01 X29.4173 Y20.7479
G01 X29.4073 Y20.7861
G01 X29.3786 Y20.9003
G01 X29.3695 Y20.9387
G01 X29.3614 Y20.9773
G01 X29.3541 Y21.0161
G01 X29.3479 Y21.0550
G01 X29.3306 Y21.1715
G01 X29.3253 Y21.2106
G01 X29.3209 Y21.2498
G01 X29.3175 Y21.2891
G01 X29.3151 Y21.3285
G01 X29.3093 Y21.4461
G01 X29.3079 Y21.4856
G01 X29.3074 Y21.5250
G01 X29.3079 Y21.5645
G01 X29.3093 Y21.6039
G01 X29.3151 Y21.7215
G01 X29.3175 Y21.7609
G01 X29.3209 Y21.8002
G01 X29.3253 Y21.8394
G01 X29.3306 Y21.8785
G01 X29.3479 Y21.9950
G01 X29.3541 Y22.0340
G01 X29.3614 Y22.0727
G01 X29.3695 Y22.1113
G01 X29.3786 Y22.1497
G01 X29.4073 Y22.2640
G01 X29.4173 Y22.3021
G01 X29.4283 Y22.3400
G01 X29.4402 Y22.3776
G01 X29.4531 Y22.4149
G01 X29.4927 Y22.5258
G01 X29.5044 Y22.5572
G01 X27.8636 Y22.5572
G00 Z2.0000
G00 X29.3306 Y27.1715
G01 F60.00
G01 Z-0.0750
G01 F120.00
G01 X29.3253 Y27.2106
G01 X29.3209 Y27.2498
G01 X29.3175 Y27.2891
G01 X29.3151 Y27.3285
G01 X29.3093 Y27.4461
G01 X29.3079 Y27.4856
G01 X29.3074 Y27.5250
G01 X29.3079 Y27.5645
G01 X29.3093 Y27.6039
G01 X29.3151 Y27.7215
G01 X29.3175 Y27.7609
G01 X29.3209 Y27.8002
G01 X29.3253 Y27.8394
G01 X29.3306 Y27.8785
G01 X29.3479 Y27.9950
G01 X29.3541 Y28.0340
G01 X29.3614 Y28.0727
G01 X29.3695 Y28.1113
G01 X29.3786 Y28.1497
G01 X29.4073 Y28.2640
G01 X29.4173 Y28.3021
G01 X29.4283 Y28.3400
G01 X29.4402 Y28.3776
G01 X29.4531 Y28.4149
G01 X29.4927 Y28.5258
G01 X29.5065 Y28.5628
G01 X29.5211 Y28.5994
G01 X29.5367 Y28.6357
G01 X29.5531 Y28.6716
G01 X29.6035 Y28.7780
G01 X29.6208 Y28.8135
G01 X29.6389 Y28.8485
G01 X29.6580 Y28.8831
G01 X29.6778 Y28.9172
G01 X29.7384 Y29.0182
G01 X29.7591 Y29.0518
G01 X29.7806 Y29.0848
G01 X29.8029 Y29.1174
G01 X29.8260 Y29.1493
G01 X29.8962 Y29.2439
G01 X29.9201 Y29.2753
G01 X29.9447 Y29.3061
G01 X29.9701 Y29.3363
G01 X29.9962 Y29.3659
G01 X30.0753 Y29.4531
G01 X30.1022 Y29.4820
G01 X30.1297 Y29.5103
G01 X30.1580 Y29.5378
G01 X30.1869 Y29.5647
G01 X30.2741 Y29.6438
G01 X30.3037 Y29.6699
G01 X30.3339 Y29.6953
G01 X30.3647 Y29.7200
G01 X30.3961 Y29.7439
G01 X30.4907 Y29.8140
G01 X30.5227 Y29.8371
G01 X30.5552 Y29.8594
G01 X30.5883 Y29.8810
G01 X30.6219 Y29.9017
G01 X30.7229 Y29.9622
G01 X30.7570 Y29.9821
G01 X30.7915 Y30.0011
