(G-CODE GENERATED BY FLATCAM v8.994 - www.flatcam.org - Version Date: 2020/11/7)

(Name: F_F-F_Cu.gbr_iso_combined_cnc)
(Type: G-code from Geometry)
(Units: MM)

(Created on Thursday, 15 January 2026 at 13:10)

(This preprocessor is the default preprocessor used by FlatCAM.)
(It is made to work with MACH3 compatible motion controllers.)

(TOOL DIAMETER: 3.2152 mm)
(Feedrate_XY: 120.0 mm/min)
(Feedrate_Z: 60.0 mm/min)
(Feedrate rapids 1500.0 mm/min)

(Z_Cut: -0.075 mm)
(Z_Move: 2.0 mm)
(Z Start: None mm)
(Z End: 15.0 mm)
(X,Y End: 0.0000, 0.0000 mm)
(Steps per circle: 64)
(Preprocessor Geometry: Default_no_M6)

(X range:   -3.8150 ...   53.4655  mm)
(Y range:   -3.8150 ...   43.4655  mm)

(Spindle Speed: 10000.0 RPM)
G21
G90
G94

G01 F120.00

M5
G00 Z15.0000
G00 X0.0000 Y0.0000Z12.41
T1
(MSG, Change to Tool Dia = 3.2152)
M0
G00 Z12.41
        
M03 S10000.0
G01 F120.00
G0X1.3674Y1.5125Z12.4133
G0X2.7347Y3.025Z12.4169
G01 F60.00
G1X2.7347Y3.025Z10.2633
G1X2.7347Y3.025Z8.1098
G1X2.7347Y3.025Z5.9562
G1X2.7347Y3.025Z3.8026
G1X2.7347Y3.025Z1.649
G1X2.7347Y3.025Z-0.5045
G1X2.7347Y3.025Z-2.6581
G01 F120.00
G01 X2.7361 Y2.9966Z-2.6578
G01 X2.7403 Y2.9684Z-2.6575
G01 X2.7472 Y2.9407Z-2.6571
G01 X2.7568 Y2.9139Z-2.6567
G01 X2.7690 Y2.8882Z-2.6563
G01 X2.7836 Y2.8637Z-2.6559
G01 X2.8006 Y2.8409Z-2.6554
G01 X2.8197 Y2.8197Z-2.6549
G01 X2.8409 Y2.8006Z-2.6545
G01 X2.8637 Y2.7836Z-2.654
G01 X2.8882 Y2.7690Z-2.6535
G01 X2.9139 Y2.7568Z-2.653
G01 X2.9407 Y2.7472Z-2.6526
G01 X2.9684 Y2.7403Z-2.6521
G01 X2.9966 Y2.7361Z-2.6517
G01 X3.0250 Y2.7347Z-2.6513
G01 X3.0535 Y2.7361Z-2.6509
G01 X3.0816 Y2.7403Z-2.6506
G01 X3.1093 Y2.7472Z-2.6503
G01 X3.1361 Y2.7568Z-2.65
G01 X3.1619 Y2.7690Z-2.6498
G01 X3.1863 Y2.7836Z-2.6496
G01 X3.2092 Y2.8006Z-2.6494
G01 X3.2303 Y2.8197Z-2.6493
G01 X3.2494 Y2.8409Z-2.6493
G01 X3.2664 Y2.8637Z-2.6493
G01 X3.2810 Y2.8882Z-2.6493
G01 X3.2932 Y2.9139Z-2.6494
G01 X3.3028 Y2.9407Z-2.6495
G01 X3.3097 Y2.9684Z-2.6497
G01 X3.3139 Y2.9966Z-2.6499
G01 X3.3153 Y3.0250Z-2.6502
G01 X3.3139 Y3.0535Z-2.6505
G01 X3.3097 Y3.0816Z-2.6508
G01 X3.3028 Y3.1093Z-2.6512
G01 X3.2932 Y3.1361Z-2.6516
G01 X3.2810 Y3.1619Z-2.652
G01 X3.2664 Y3.1863Z-2.6525
G01 X3.2494 Y3.2092Z-2.6529
G01 X3.2303 Y3.2303Z-2.6534
G01 X3.2092 Y3.2494Z-2.6539
G01 X3.1863 Y3.2664Z-2.6544
G01 X3.1619 Y3.2810Z-2.6548
G01 X3.1361 Y3.2932Z-2.6553
G01 X3.1093 Y3.3028Z-2.6558
G01 X3.0816 Y3.3097Z-2.6562
G01 X3.0535 Y3.3139Z-2.6566
G01 X3.0250 Y3.3153Z-2.657
G01 X2.9966 Y3.3139Z-2.6574
G01 X2.9684 Y3.3097Z-2.6578
G01 X2.9407 Y3.3028Z-2.6581
G01 X2.9139 Y3.2932Z-2.6583
G01 X2.8882 Y3.2810Z-2.6586
G01 X2.8637 Y3.2664Z-2.6588
G01 X2.8409 Y3.2494Z-2.6589
G01 X2.8197 Y3.2303Z-2.659
G01 X2.8006 Y3.2092Z-2.6591
G01 X2.7836 Y3.1863Z-2.6591
G01 X2.7690 Y3.1619Z-2.659
G01 X2.7568 Y3.1361Z-2.6589
G01 X2.7472 Y3.1093Z-2.6588
G01 X2.7403 Y3.0816Z-2.6586
G01 X2.7361 Y3.0535Z-2.6584
G01 X2.7347 Y3.0250Z-2.6581
G00 Z-0.5831
G0X3.2724Y5.3471Z-0.5988
G0X3.81Y7.6691Z-0.6143
G0X4.3477Y9.9912Z-0.6296
G0X4.8854Y12.3132Z-0.6448
G0X5.4231Y14.6353Z-0.66
G0X5.9607Y16.9573Z-0.6751
G0X6.4984Y19.2794Z-0.6903
G01 F60.00
G01 Z-2.7653
G01 F120.00
G1X8.8467Y19.3099Z-2.7325
G1X11.1949Y19.3403Z-2.6985
G1X13.5432Y19.3708Z-2.6633
G01 X13.4990 Y19.3917Z-2.6642
G01 X13.4635 Y19.4090Z-2.6649
G01 X13.4285 Y19.4272Z-2.6656
G01 X13.3940 Y19.4462Z-2.6663
G01 X13.3599 Y19.4661Z-2.667
G01 X13.2530 Y19.5302Z-2.6692
G01 X13.2194 Y19.5509Z-2.6699
G01 X13.1863 Y19.5724Z-2.6706
G01 X13.1538 Y19.5947Z-2.6713
G01 X13.1218 Y19.6178Z-2.672
G01 X13.0217 Y19.6921Z-2.6742
G01 X12.9903 Y19.7159Z-2.6749
G01 X12.9595 Y19.7406Z-2.6756
G01 X12.9293 Y19.7660Z-2.6763
G01 X12.8997 Y19.7921Z-2.677
G01 X12.8074 Y19.8758Z-2.6792
G01 X12.7785 Y19.9027Z-2.6799
G01 X12.7502 Y19.9302Z-2.6805
G01 X12.7146 Y19.9672Z-2.6814
G1X10.9951Y19.9672Z-2.7076
G1X9.2756Y19.9672Z-2.7329
G1X7.5561Y19.9672Z-2.7571
G01 X7.5298 Y19.9402Z-2.7572
G01 X7.5015 Y19.9127Z-2.7574
G01 X7.4726 Y19.8858Z-2.7575
G01 X7.3803 Y19.8021Z-2.758
G01 X7.3507 Y19.7760Z-2.7582
G01 X7.3205 Y19.7506Z-2.7583
G01 X7.2897 Y19.7259Z-2.7585
G01 X7.2583 Y19.7021Z-2.7587
G01 X7.1582 Y19.6278Z-2.7594
G01 X7.1263 Y19.6047Z-2.7596
G01 X7.0937 Y19.5824Z-2.7599
G01 X7.0606 Y19.5609Z-2.7601
G01 X7.0271 Y19.5402Z-2.7604
G01 X6.9202 Y19.4761Z-2.7613
G01 X6.8861 Y19.4562Z-2.7616
G01 X6.8515 Y19.4372Z-2.7619
G01 X6.8165 Y19.4190Z-2.7622
G01 X6.7810 Y19.4017Z-2.7625
G01 X6.6684 Y19.3484Z-2.7636
G01 X6.6325 Y19.3320Z-2.7639
G01 X6.5962 Y19.3165Z-2.7643
G01 X6.5596 Y19.3018Z-2.7647
G01 X6.4984 Y19.2794Z-2.7653
G00 Z-0.6903
G0X8.8978Y19.3105Z-0.6568
G0X11.2973Y19.3417Z-0.622
G0X13.6967Y19.3728Z-0.586
G0X16.0961Y19.404Z-0.5501
G01 F60.00
G01 Z-2.6251
G01 F120.00
G01 X16.9519 Y19.4151Z-2.6122
G01 X16.9285 Y19.4272Z-2.6127
G01 X16.8940 Y19.4462Z-2.6134
G01 X16.8599 Y19.4661Z-2.6141
G01 X16.7530 Y19.5302Z-2.6163
G01 X16.7194 Y19.5509Z-2.6169
G01 X16.6863 Y19.5724Z-2.6176
G01 X16.6538 Y19.5947Z-2.6183
G01 X16.6218 Y19.6178Z-2.619
G01 X16.5350 Y19.6822Z-2.6209
G01 X16.4482 Y19.6178Z-2.6216
G01 X16.4163 Y19.5947Z-2.6219
G01 X16.3837 Y19.5724Z-2.6222
G01 X16.3506 Y19.5509Z-2.6225
G01 X16.3171 Y19.5302Z-2.6229
G01 X16.2102 Y19.4661Z-2.6239
G01 X16.1761 Y19.4462Z-2.6242
G01 X16.1415 Y19.4272Z-2.6246
G01 X16.0961 Y19.4040Z-2.6251
G00 Z-0.5501
G0X17.8898Y19.4273Z-0.5232
G0X19.6835Y19.4505Z-0.4963
G01 F60.00
G01 Z-2.5713
G01 F120.00
G01 X20.4747 Y19.4608Z-2.5608
G01 X20.5130 Y19.4608Z-2.5604
G01 X20.5512 Y19.4600Z-2.5599
G01 X20.5895 Y19.4582Z-2.5594
G01 X20.6276 Y19.4555Z-2.5589
G01 X20.6657 Y19.4519Z-2.5584
G01 X20.7037 Y19.4474Z-2.5579
G01 X20.7416 Y19.4420Z-2.5574
G01 X20.7793 Y19.4357Z-2.5569
G01 X20.8169 Y19.4285Z-2.5564
G01 X20.8543 Y19.4204Z-2.5559
G01 X20.8915 Y19.4114Z-2.5554
G01 X20.9285 Y19.4016Z-2.5548
G01 X20.9958 Y19.3827Z-2.5539
G01 X21.0341 Y19.3715Z-2.5533
G01 X21.0721 Y19.3593Z-2.5527
G01 X21.1098 Y19.3462Z-2.5522
G01 X21.1472 Y19.3322Z-2.5516
G01 X21.1842 Y19.3172Z-2.551
G01 X21.2208 Y19.3013Z-2.5505
G01 X21.2570 Y19.2845Z-2.5499
G01 X21.2928 Y19.2669Z-2.5493
G01 X21.3282 Y19.2483Z-2.5487
G01 X21.3630 Y19.2288Z-2.5481
G01 X21.3974 Y19.2085Z-2.5476
G01 X21.4313 Y19.1874Z-2.547
G01 X21.4646 Y19.1654Z-2.5464
G01 X21.4974 Y19.1426Z-2.5458
G01 X21.5296 Y19.1190Z-2.5452
G01 X21.5612 Y19.0946Z-2.5446
G01 X21.5921 Y19.0694Z-2.544
G01 X21.6225 Y19.0435Z-2.5435
G01 X21.6522 Y19.0168Z-2.5429
G01 X21.6812 Y18.9894Z-2.5423
G01 X21.7095 Y18.9613Z-2.5417
G01 X21.7372 Y18.9324Z-2.5412
G01 X21.7641 Y18.9029Z-2.5406
G01 X21.8105 Y18.8507Z-2.5396
G01 X21.8366 Y18.8206Z-2.539
G01 X21.8620 Y18.7898Z-2.5385
G01 X21.8867 Y18.7584Z-2.5379
G01 X21.9105 Y18.7264Z-2.5373
G01 X21.9335 Y18.6938Z-2.5368
G01 X21.9557 Y18.6607Z-2.5362
G01 X21.9771 Y18.6270Z-2.5357
G01 X21.9977 Y18.5928Z-2.5352
G01 X22.0173 Y18.5581Z-2.5347
G01 X22.0362 Y18.5229Z-2.5341
G01 X22.0541 Y18.4873Z-2.5336
G01 X22.0711 Y18.4512Z-2.5331
G01 X22.0873 Y18.4147Z-2.5326
G01 X22.1025 Y18.3778Z-2.5321
G01 X22.1169 Y18.3406Z-2.5316
G01 X22.1302 Y18.3030Z-2.5312
G01 X22.1427 Y18.2651Z-2.5307
G01 X22.1542 Y18.2269Z-2.5302
G01 X22.1648 Y18.1884Z-2.5298
G01 X22.1744 Y18.1497Z-2.5294
G01 X22.1830 Y18.1107Z-2.5289
G01 X22.1948 Y18.0541Z-2.5283
G01 X22.2021 Y18.0169Z-2.5279
G01 X22.2086 Y17.9796Z-2.5275
G01 X22.2141 Y17.9421Z-2.5272
G01 X22.2188 Y17.9045Z-2.5268
G01 X22.2225 Y17.8668Z-2.5264
G01 X22.2254 Y17.8290Z-2.5261
G01 X22.2274 Y17.7912Z-2.5257
G01 X22.2285 Y17.7533Z-2.5254
G01 X22.2287 Y17.7154Z-2.5251
G01 X22.2280 Y17.6776Z-2.5248
G01 X22.1655 Y15.5868Z-2.5082
G01 X22.1639 Y15.5485Z-2.5079
G01 X22.1614 Y15.5104Z-2.5076
G01 X22.1580 Y15.4723Z-2.5074
G01 X22.1536 Y15.4342Z-2.5071
G01 X22.1484 Y15.3963Z-2.5069
G01 X22.1423 Y15.3586Z-2.5066
G01 X22.1353 Y15.3210Z-2.5064
G01 X22.1273 Y15.2835Z-2.5062
G01 X22.1185 Y15.2463Z-2.506
G01 X22.1088 Y15.2093Z-2.5058
G01 X22.0992 Y15.1756Z-2.5056
G01 X22.1134 Y15.1700Z-2.5054
G01 X22.1496 Y15.1544Z-2.5048
G01 X22.2210 Y15.1212Z-2.5037
G01 X22.2565 Y15.1039Z-2.5031
G01 X22.2915 Y15.0857Z-2.5025
G01 X22.3260 Y15.0667Z-2.5019
G01 X22.3550 Y15.0498Z-2.5014
G01 X22.3579 Y15.0978Z-2.5018
G01 X22.3613 Y15.1371Z-2.5021
G01 X22.3656 Y15.1763Z-2.5024
G01 X22.3709 Y15.2154Z-2.5026
G01 X22.3892 Y15.3387Z-2.5034
G01 X22.3955 Y15.3776Z-2.5037
G01 X22.4027 Y15.4164Z-2.5039
G01 X22.4109 Y15.4550Z-2.5041
G01 X22.4200 Y15.4934Z-2.5043
G01 X22.4503 Y15.6143Z-2.505
G01 X22.4603 Y15.6524Z-2.5052
G01 X22.4713 Y15.6903Z-2.5053
G01 X22.4832 Y15.7279Z-2.5055
G01 X22.4961 Y15.7653Z-2.5056
G01 X22.5381 Y15.8826Z-2.5061
G01 X22.5518 Y15.9196Z-2.5062
G01 X22.5665 Y15.9562Z-2.5064
G01 X22.5820 Y15.9925Z-2.5065
G01 X22.5984 Y16.0284Z-2.5066
G01 X22.6517 Y16.1410Z-2.5069
G01 X22.6690 Y16.1765Z-2.5069
G01 X22.6872 Y16.2115Z-2.507
G01 X22.7062 Y16.2461Z-2.5071
G01 X22.7261 Y16.2802Z-2.5071
G01 X22.7902 Y16.3871Z-2.5072
G01 X22.8109 Y16.4206Z-2.5072
G01 X22.8324 Y16.4537Z-2.5072
G01 X22.8547 Y16.4863Z-2.5072
G01 X22.8778 Y16.5182Z-2.5072
G01 X22.9521 Y16.6183Z-2.5072
G01 X22.9759 Y16.6497Z-2.5071
G01 X23.0006 Y16.6805Z-2.5071
G01 X23.0260 Y16.7107Z-2.507
G01 X23.0521 Y16.7403Z-2.5069
G01 X23.0922 Y16.7845Z-2.5068
G01 X23.0922 Y17.1028Z-2.5095
G01 X23.0603 Y17.1369Z-2.5101
G01 X22.9812 Y17.2241Z-2.5118
G01 X22.9551 Y17.2537Z-2.5124
G01 X22.9297 Y17.2839Z-2.513
G01 X22.9051 Y17.3147Z-2.5135
G01 X22.8812 Y17.3461Z-2.5141
G01 X22.8110 Y17.4407Z-2.5157
G01 X22.7879 Y17.4727Z-2.5163
G01 X22.7656 Y17.5052Z-2.5168
G01 X22.7441 Y17.5383Z-2.5173
G01 X22.7234 Y17.5719Z-2.5179
G01 X22.6628 Y17.6729Z-2.5195
G01 X22.6430 Y17.7070Z-2.52
G01 X22.6239 Y17.7415Z-2.5205
G01 X22.6058 Y17.7765Z-2.521
G01 X22.5885 Y17.8120Z-2.5215
G01 X22.5381 Y17.9185Z-2.523
G01 X22.5217 Y17.9543Z-2.5235
G01 X22.5061 Y17.9906Z-2.524
G01 X22.4915 Y18.0272Z-2.5245
G01 X22.4777 Y18.0642Z-2.525
G01 X22.4381 Y18.1751Z-2.5264
G01 X22.4252 Y18.2124Z-2.5268
G01 X22.4133 Y18.2500Z-2.5273
G01 X22.4023 Y18.2879Z-2.5277
G01 X22.3923 Y18.3261Z-2.5282
G01 X22.3636 Y18.4403Z-2.5295
G01 X22.3545 Y18.4787Z-2.5299
G01 X22.3464 Y18.5173Z-2.5303
G01 X22.3391 Y18.5561Z-2.5307
G01 X22.3329 Y18.5950Z-2.5311
G01 X22.3156 Y18.7115Z-2.5323
G01 X22.3103 Y18.7506Z-2.5327
G01 X22.3059 Y18.7898Z-2.5331
G01 X22.3025 Y18.8291Z-2.5334
G01 X22.3001 Y18.8685Z-2.5338
G01 X22.2943 Y18.9861Z-2.5348
G01 X22.2929 Y19.0256Z-2.5352
G01 X22.2924 Y19.0650Z-2.5355
G01 X22.2929 Y19.1045Z-2.5358
G01 X22.2943 Y19.1439Z-2.5361
G01 X22.3001 Y19.2615Z-2.537
G01 X22.3025 Y19.3009Z-2.5373
G01 X22.3059 Y19.3402Z-2.5376
G01 X22.3103 Y19.3794Z-2.5379
G01 X22.3156 Y19.4185Z-2.5382
G01 X22.3329 Y19.5350Z-2.5389
G01 X22.3391 Y19.5740Z-2.5392
G01 X22.3464 Y19.6127Z-2.5394
G01 X22.3545 Y19.6513Z-2.5396
G01 X22.3636 Y19.6897Z-2.5398
G01 X22.3923 Y19.8040Z-2.5404
G01 X22.4023 Y19.8421Z-2.5406
G01 X22.4133 Y19.8800Z-2.5408
G01 X22.4252 Y19.9176Z-2.541
G01 X22.4424 Y19.9672Z-2.5412
G01 X20.3554 Y19.9672Z-2.5664
G01 X20.3198 Y19.9302Z-2.5666
G01 X20.2915 Y19.9027Z-2.5667
G01 X20.2626 Y19.8758Z-2.5668
G01 X20.1703 Y19.7921Z-2.5672
G01 X20.1407 Y19.7660Z-2.5674
G01 X20.1105 Y19.7406Z-2.5675
G01 X20.0797 Y19.7159Z-2.5677
G01 X20.0483 Y19.6921Z-2.5679
G01 X19.9482 Y19.6178Z-2.5687
G01 X19.9163 Y19.5947Z-2.5689
G01 X19.8837 Y19.5724Z-2.5693
G01 X19.8506 Y19.5509Z-2.5696
G01 X19.8171 Y19.5302Z-2.5699
G01 X19.7102 Y19.4661Z-2.571
G01 X19.6835 Y19.4505Z-2.5713
G00 Z-0.4963
G0X21.7285Y20.2272Z-0.4771
G0X23.7736Y21.0038Z-0.4592
G0X25.8186Y21.7805Z-0.4408
G0X27.8636Y22.5572Z-0.422
G01 F60.00
G01 Z-2.497
G01 F120.00
G01 X27.8844 Y22.4185Z-2.4956
G01 X27.8897 Y22.3794Z-2.4952
G01 X27.8941 Y22.3402Z-2.4948
G01 X27.8975 Y22.3009Z-2.4945
G01 X27.8999 Y22.2615Z-2.4941
G01 X27.9057 Y22.1439Z-2.4931
G01 X27.9071 Y22.1045Z-2.4927
G01 X27.9076 Y22.0650Z-2.4924
G01 X27.9071 Y22.0256Z-2.4921
G01 X27.9057 Y21.9861Z-2.4918
G01 X27.8999 Y21.8685Z-2.4909
G01 X27.8975 Y21.8291Z-2.4906
G01 X27.8941 Y21.7898Z-2.4903
G01 X27.8897 Y21.7506Z-2.49
G01 X27.8844 Y21.7115Z-2.4898
G01 X27.8672 Y21.5950Z-2.489
G01 X27.8609 Y21.5561Z-2.4888
G01 X27.8537 Y21.5173Z-2.4885
G01 X27.8455 Y21.4787Z-2.4883
G01 X27.8364 Y21.4403Z-2.4881
G01 X27.8078 Y21.3261Z-2.4875
G01 X27.7977 Y21.2879Z-2.4873
G01 X27.7867 Y21.2500Z-2.4871
G01 X27.7748 Y21.2124Z-2.487
G01 X27.7620 Y21.1751Z-2.4868
G01 X27.7223 Y21.0642Z-2.4864
G01 X27.7085 Y21.0272Z-2.4863
G01 X27.6939 Y20.9906Z-2.4861
G01 X27.6784 Y20.9543Z-2.486
G01 X27.6619 Y20.9185Z-2.4859
G01 X27.6116 Y20.8120Z-2.4856
G01 X27.5943 Y20.7765Z-2.4856
G01 X27.5761 Y20.7415Z-2.4855
G01 X27.5571 Y20.7070Z-2.4854
G01 X27.5372 Y20.6729Z-2.4854
G01 X27.4724 Y20.5650Z-2.4853
G01 X27.5372 Y20.4572Z-2.4836
G01 X27.5571 Y20.4231Z-2.4831
G01 X27.5761 Y20.3885Z-2.4826
G01 X27.5943 Y20.3535Z-2.482
G01 X27.6116 Y20.3180Z-2.4815
G01 X27.6619 Y20.2116Z-2.48
G01 X27.6784 Y20.1757Z-2.4795
G01 X27.6939 Y20.1394Z-2.4791
G01 X27.7085 Y20.1028Z-2.4786
G01 X27.7223 Y20.0658Z-2.4781
G01 X27.7620 Y19.9549Z-2.4767
G01 X27.7748 Y19.9176Z-2.4762
G01 X27.7867 Y19.8800Z-2.4758
G01 X27.7977 Y19.8421Z-2.4753
G01 X27.8078 Y19.8040Z-2.4749
G01 X27.8364 Y19.6897Z-2.4735
G01 X27.8455 Y19.6513Z-2.4731
G01 X27.8537 Y19.6127Z-2.4727
G01 X27.8609 Y19.5740Z-2.4723
G01 X27.8672 Y19.5350Z-2.4718
G01 X27.8844 Y19.4185Z-2.4706
G01 X27.8897 Y19.3794Z-2.4702
G01 X27.8941 Y19.3402Z-2.4699
G01 X27.8975 Y19.3009Z-2.4695
G01 X27.8999 Y19.2615Z-2.4691
G01 X27.9057 Y19.1439Z-2.4681
G01 X27.9071 Y19.1045Z-2.4677
G01 X27.9076 Y19.0650Z-2.4674
G01 X27.9071 Y19.0256Z-2.467
G01 X27.9057 Y18.9861Z-2.4667
G01 X27.8999 Y18.8685Z-2.4658
G01 X27.8975 Y18.8291Z-2.4655
G01 X27.8941 Y18.7898Z-2.4652
G01 X27.8897 Y18.7506Z-2.4649
G01 X27.8844 Y18.7115Z-2.4646
G01 X27.8672 Y18.5950Z-2.4638
G01 X27.8609 Y18.5561Z-2.4636
G01 X27.8537 Y18.5173Z-2.4633
G01 X27.8455 Y18.4787Z-2.4631
G01 X27.8364 Y18.4403Z-2.4629
G01 X27.8078 Y18.3261Z-2.4623
G01 X27.7977 Y18.2879Z-2.4621
G01 X27.7867 Y18.2500Z-2.4619
G01 X27.7748 Y18.2124Z-2.4617
G01 X27.7620 Y18.1751Z-2.4615
G01 X27.7223 Y18.0642Z-2.4611
G01 X27.7085 Y18.0272Z-2.4609
G01 X27.6939 Y17.9906Z-2.4608
G01 X27.6784 Y17.9543Z-2.4607
G01 X27.6619 Y17.9185Z-2.4606
G01 X27.6116 Y17.8120Z-2.4603
G01 X27.5943 Y17.7765Z-2.4602
G01 X27.5761 Y17.7415Z-2.4601
G01 X27.5571 Y17.7070Z-2.4601
G01 X27.5372 Y17.6729Z-2.46
G01 X27.4767 Y17.5719Z-2.4599
G01 X27.4560 Y17.5383Z-2.4599
G01 X27.4344 Y17.5052Z-2.4598
G01 X27.4121 Y17.4727Z-2.4598
G01 X27.3890 Y17.4407Z-2.4599
G01 X27.3189 Y17.3461Z-2.4599
G01 X27.2950 Y17.3147Z-2.4599
G01 X27.2703 Y17.2839Z-2.46
G01 X27.2449 Y17.2537Z-2.46
G01 X27.2188 Y17.2241Z-2.4601
G01 X27.1397 Y17.1369Z-2.4603
G01 X27.1078 Y17.1028Z-2.4604
G01 X27.1078 Y17.0301Z-2.4598
G01 X27.2026 Y16.9442Z-2.4579
G01 X27.2315 Y16.9173Z-2.4573
G01 X27.2598 Y16.8898Z-2.4567
G01 X27.2873 Y16.8615Z-2.4562
G01 X27.3142 Y16.8326Z-2.4556
G01 X27.3979 Y16.7403Z-2.4538
G01 X27.4240 Y16.7107Z-2.4532
G01 X27.4494 Y16.6805Z-2.4527
G01 X27.4741 Y16.6497Z-2.4521
G01 X27.4980 Y16.6183Z-2.4515
G01 X27.5722 Y16.5182Z-2.4498
G01 X27.5953 Y16.4863Z-2.4492
G01 X27.6176 Y16.4537Z-2.4487
G01 X27.6392 Y16.4206Z-2.4481
G01 X27.6599 Y16.3871Z-2.4476
G01 X27.7239 Y16.2802Z-2.4459
G01 X27.7438 Y16.2461Z-2.4454
G01 X27.7628 Y16.2115Z-2.4448
G01 X27.7810 Y16.1765Z-2.4443
G01 X27.7983 Y16.1410Z-2.4438
G01 X27.8516 Y16.0284Z-2.4422
G01 X27.8680 Y15.9925Z-2.4417
G01 X27.8836 Y15.9562Z-2.4412
G01 X27.8982 Y15.9196Z-2.4407
G01 X27.9120 Y15.8826Z-2.4402
G01 X27.9540 Y15.7653Z-2.4387
G01 X27.9668 Y15.7279Z-2.4382
G01 X27.9787 Y15.6903Z-2.4377
G01 X27.9897 Y15.6524Z-2.4373
G01 X27.9997 Y15.6143Z-2.4368
G01 X28.0300 Y15.4934Z-2.4354
G01 X28.0391 Y15.4550Z-2.435
G01 X28.0473 Y15.4164Z-2.4346
G01 X28.0545 Y15.3776Z-2.4341
G01 X28.0608 Y15.3387Z-2.4337
G01 X28.0791 Y15.2154Z-2.4325
G01 X28.0844 Y15.1763Z-2.4321
G01 X28.0888 Y15.1371Z-2.4317
G01 X28.0910 Y15.1105Z-2.4314
G01 X29.2553 Y16.2747Z-2.4271
G01 X29.2835 Y16.3023Z-2.427
G01 X29.3124 Y16.3291Z-2.4269
G01 X29.3711 Y16.3817Z-2.4266
G01 X29.4013 Y16.4071Z-2.4264
G01 X29.4321 Y16.4317Z-2.4263
G01 X29.4950 Y16.4790Z-2.4259
G01 X29.5270 Y16.5021Z-2.4257
G01 X29.5595 Y16.5244Z-2.4255
G01 X29.5926 Y16.5460Z-2.4253
G01 X29.6262 Y16.5667Z-2.425
