(G-CODE GENERATED BY FLATCAM v8.994 - www.flatcam.org - Version Date: 2020/11/7)

(Name: F_F-PTH.drl_cnc)
(Type: G-code from Geometry)
(Units: MM)

(Created on Thursday, 15 January 2026 at 13:34)

(This preprocessor is the default preprocessor used by FlatCAM.)
(It is made to work with MACH3 compatible motion controllers.)


(TOOLS DIAMETER: )
(Tool: 1 -> Dia: 0.8)
(Tool: 2 -> Dia: 1.0)
(Tool: 3 -> Dia: 1.2)

(FEEDRATE Z: )
(Tool: 1 -> Feedrate: 300)
(Tool: 2 -> Feedrate: 300)
(Tool: 3 -> Feedrate: 300)

(FEEDRATE RAPIDS: )
(Tool: 1 -> Feedrate Rapids: 1500)
(Tool: 2 -> Feedrate Rapids: 1500)
(Tool: 3 -> Feedrate Rapids: 1500)

(Z_CUT: )
(Tool: 1 -> Z_Cut: -1.9)
(Tool: 2 -> Z_Cut: -1.7)
(Tool: 3 -> Z_Cut: -1.7)

(Tools Offset: )
(Tool: 1 -> Offset Z: 0.0)

(DEPTH_PER_CUT: )
(Tool: 1 -> DeptPerCut: 0.8)
(Tool: 2 -> DeptPerCut: 0.7)
(Tool: 3 -> DeptPerCut: 0.7)

(Z_MOVE: )
(Tool: 1 -> Z_Move: 2)
(Tool: 2 -> Z_Move: 2)
(Tool: 3 -> Z_Move: 2)

(Z Toolchange: 15 mm)
(X,Y Toolchange: 0.0000, 0.0000 mm)
(Z Start: None mm)
(Z End: 0.5 mm)
(X,Y End: 0.0000, 0.0000 mm)
(Steps per circle: 64)
(Preprocessor Excellon: Default_no_M6)

(X range:    4.8750 ...   46.3150  mm)
(Y range:    2.8050 ...   33.8350  mm)

(Spindle Speed: 10000 RPM)
G21
G90
G94

G01 F300.00

M5
G00 Z15.0000
T1
G00 X0.0000 Y0.0000                
(MSG, Change to Tool Dia = 0.8000 ||| Total drills for tool T1 = 27)
M0
G00 Z15.0000
        
G01 F300.00
M03 S10000
G00 X5.2750 Y9.5050
G01 Z-0.8000
G01 Z0
G00 Z2.0000
G01 Z-1.6000
G01 Z0
G00 Z2.0000
G01 Z-1.9000
G01 Z0
G00 Z2.0000
G00 X5.2750 Y9.5050
G01 Z-0.8000
G01 Z0
G00 Z2.0000
G01 Z-1.6000
G01 Z0
G00 Z2.0000
G01 Z-1.9000
G01 Z0
G00 Z2.0000
G00 X5.3250 Y15.2550
G01 Z-0.8000
G01 Z0
G00 Z2.0000
G01 Z-1.6000
G01 Z0
G00 Z2.0000
G01 Z-1.9000
G01 Z0
G00 Z2.0000
G00 X5.4950 Y21.9750
G01 Z-0.8000
G01 Z0
G00 Z2.0000
G01 Z-1.6000
G01 Z0
G00 Z2.0000
G01 Z-1.9000
G01 Z0
G00 Z2.0000
G00 X5.5550 Y28.3150
G01 Z-0.8000
G01 Z0
G00 Z2.0000
G01 Z-1.6000
G01 Z0
G00 Z2.0000
G01 Z-1.9000
G01 Z0
G00 Z2.0000
G00 X5.5250 Y32.2450
G01 Z-0.8000
G01 Z0
G00 Z2.0000
G01 Z-1.6000
G01 Z0
G00 Z2.0000
G01 Z-1.9000
G01 Z0
G00 Z2.0000
G00 X14.8250 Y33.2450
G01 Z-0.8000
G01 Z0
G00 Z2.0000
G01 Z-1.6000
G01 Z0
G00 Z2.0000
G01 Z-1.9000
G01 Z0
G00 Z2.0000
G00 X14.8650 Y28.3350
G01 Z-0.8000
G01 Z0
G00 Z2.0000
G01 Z-1.6000
G01 Z0
G00 Z2.0000
G01 Z-1.9000
G01 Z0
G00 Z2.0000
G00 X14.7850 Y21.9650
G01 Z-0.8000
G01 Z0
G00 Z2.0000
G01 Z-1.6000
G01 Z0
G00 Z2.0000
G01 Z-1.9000
G01 Z0
G00 Z2.0000
G00 X18.2850 Y21.9650
G01 Z-0.8000
G01 Z0
G00 Z2.0000
G01 Z-1.6000
G01 Z0
G00 Z2.0000
G01 Z-1.9000
G01 Z0
G00 Z2.0000
G00 X16.6900 Y16.3150
G01 Z-0.8000
G01 Z0
G00 Z2.0000
G01 Z-1.6000
G01 Z0
G00 Z2.0000
G01 Z-1.9000
G01 Z0
G00 Z2.0000
G00 X16.6900 Y13.3150
G01 Z-0.8000
G01 Z0
G00 Z2.0000
G01 Z-1.6000
G01 Z0
G00 Z2.0000
G01 Z-1.9000
G01 Z0
G00 Z2.0000
G00 X25.2250 Y14.8550
G01 Z-0.8000
G01 Z0
G00 Z2.0000
G01 Z-1.6000
G01 Z0
G00 Z2.0000
G01 Z-1.9000
G01 Z0
G00 Z2.0000
G00 X25.1000 Y19.0650
G01 Z-0.8000
G01 Z0
G00 Z2.0000
G01 Z-1.6000
G01 Z0
G00 Z2.0000
G01 Z-1.9000
G01 Z0
G00 Z2.0000
G00 X25.1000 Y22.0650
G01 Z-0.8000
G01 Z0
G00 Z2.0000
G01 Z-1.6000
G01 Z0
G00 Z2.0000
G01 Z-1.9000
G01 Z0
G00 Z2.0000
G00 X25.1000 Y25.0650
G01 Z-0.8000
G01 Z0
G00 Z2.0000
G01 Z-1.6000
G01 Z0
G00 Z2.0000
G01 Z-1.9000
G01 Z0
G00 Z2.0000
G00 X25.0250 Y28.3350
G01 Z-0.8000
G01 Z0
G00 Z2.0000
G01 Z-1.6000
G01 Z0
G00 Z2.0000
G01 Z-1.9000
G01 Z0
G00 Z2.0000
G00 X24.9850 Y33.2450
G01 Z-0.8000
G01 Z0
G00 Z2.0000
G01 Z-1.6000
G01 Z0
G00 Z2.0000
G01 Z-1.9000
G01 Z0
G00 Z2.0000
G00 X28.5250 Y33.2350
G01 Z-0.8000
G01 Z0
G00 Z2.0000
G01 Z-1.6000
G01 Z0
G00 Z2.0000
G01 Z-1.9000
G01 Z0
G00 Z2.0000
G00 X32.1150 Y27.5250
G01 Z-0.8000
G01 Z0
G00 Z2.0000
G01 Z-1.6000
G01 Z0
G00 Z2.0000
G01 Z-1.9000
G01 Z0
G00 Z2.0000
G00 X32.1150 Y24.5250
G01 Z-0.8000
G01 Z0
G00 Z2.0000
G01 Z-1.6000
G01 Z0
G00 Z2.0000
G01 Z-1.9000
G01 Z0
G00 Z2.0000
G00 X32.1150 Y21.5250
G01 Z-0.8000
G01 Z0
G00 Z2.0000
G01 Z-1.6000
G01 Z0
G00 Z2.0000
G01 Z-1.9000
G01 Z0
G00 Z2.0000
G00 X35.3850 Y14.8550
G01 Z-0.8000
G01 Z0
G00 Z2.0000
G01 Z-1.6000
G01 Z0
G00 Z2.0000
G01 Z-1.9000
G01 Z0
G00 Z2.0000
G00 X45.9150 Y13.5450
G01 Z-0.8000
G01 Z0
G00 Z2.0000
G01 Z-1.6000
G01 Z0
G00 Z2.0000
G01 Z-1.9000
G01 Z0
G00 Z2.0000
G00 X43.3950 Y30.9350
G01 Z-0.8000
G01 Z0
G00 Z2.0000
G01 Z-1.6000
G01 Z0
G00 Z2.0000
G01 Z-1.9000
G01 Z0
G00 Z2.0000
G00 X43.3950 Y33.4350
G01 Z-0.8000
G01 Z0
G00 Z2.0000
G01 Z-1.6000
G01 Z0
G00 Z2.0000
G01 Z-1.9000
G01 Z0
G00 Z2.0000
G00 X38.6850 Y33.2350
G01 Z-0.8000
G01 Z0
G00 Z2.0000
G01 Z-1.6000
G01 Z0
G00 Z2.0000
G01 Z-1.9000
G01 Z0
G00 Z2.0000
G00 X10.3350 Y3.2050
G01 Z-0.8000
G01 Z0
G00 Z2.0000
G01 Z-1.6000
G01 Z0
G00 Z2.0000
G01 Z-1.9000
G01 Z0
G00 Z2.0000
M05
G00 Z0.50
G00 X0.0 Y0.0


